UffyLook Opensource/DCTLs & LUTs/2383_DWG_to_DWG_v2.cube
TITLE "Kodak 2383 DWG v2"
# Kodak 2383 print stock profile adapted for DaVinci Wide Gamut Intermediate input + output. v2, revised by Cullen Kelly Color on 4/21/22
# 
LUT_3D_SIZE 4
0.0000000000 0.0000000000 0.0000000000
0.2235446708 0.1360341802 0.0883649958
0.4487983520 0.2836957351 0.2300602731
0.6986800946 0.6884412909 0.6718699931
0.1502098116 0.2197299153 0.1794918746
0.3121843290 0.2863508049 0.1740901808
0.4301670863 0.3207751583 0.2223544671
0.6984206912 0.6882124056 0.6703440909
0.4779430838 0.5718471046 0.5472343023
0.4808575570 0.5621423667 0.5164263371
0.6455481804 0.6243686580 0.5009842069
0.5849546044 0.5542534524 0.3632104982
0.7091172656 0.7114824140 0.7115587091
0.7091172656 0.7114824140 0.7115587091
0.7089951934 0.7114671550 0.7115434501
0.7116350042 0.7115129320 0.7103532464
0.0957656214 0.1445944915 0.1973601892
0.2115968566 0.1335469596 0.2314335851
0.4585946441 0.3020065614 0.3460593576
0.6989852750 0.6887159533 0.6738689250
0.1824063478 0.2537270161 0.2708171206
0.3303425650 0.3303120470 0.3377431907
0.4511177234 0.2882124056 0.2370794232
0.6986953536 0.6884870680 0.6719615473
0.4826276036 0.5804837110 0.5662012665
0.4844281682 0.5754329747 0.5504539559
0.6476234073 0.6269932097 0.5062180514
0.5848935683 0.5541924163 0.3631799802
0.7091477836 0.7114976730 0.7115587091
0.7091477836 0.7114976730 0.7115587091
0.7090257115 0.7114824140 0.7115434501
0.7116502632 0.7115281910 0.7103990234
0.1684138247 0.2314793622 0.2963759823
0.1991302358 0.2167696651 0.3651178759
0.4353856718 0.2984817273 0.4438239109
0.7046158541 0.6965590906 0.6999923705
0.2053253986 0.2754406043 0.3376211185
0.2004577707 0.2685893034 0.3391927977
0.4364995804 0.2992904555 0.4451667048
0.7045090410 0.6963454643 0.6995498589
0.4157473106 0.5579766537 0.5761959258
0.4190585183 0.5641565576 0.5823453117
0.6874189364 0.6871290150 0.6843060960
0.6992599374 0.6893263142 0.6738841840
0.7097276265 0.7115739681 0.7116197452
0.7097276265 0.7115739681 0.7116197452
0.7096360723 0.7115587091 0.7116197452
0.7117723354 0.7117265583 0.7112687877
0.1749752041 0.2392309453 0.3043259327
0.1749752041 0.2392309453 0.3043259327
0.4187991150 0.2971847105 0.4324711986
0.6935683223 0.6766308080 0.6979629206
0.1749752041 0.2392309453 0.3043259327
0.1749752041 0.2392309453 0.3043259327
0.4180361639 0.2969863432 0.4320897230
0.6935988403 0.6766613260 0.6979781796
0.3391775387 0.4413519493 0.4670481422
0.3388265812 0.4408789197 0.4666666667
0.6381780728 0.6513008316 0.6796215763
0.6942397192 0.6776073854 0.6982681010
0.7056687266 0.7110093843 0.7111467155
0.7056992447 0.7110093843 0.7111467155
0.7062943465 0.7110856794 0.7112230106
0.7118638895 0.7118638895 0.7118638895
