UffyLook Opensource/DCTLs & LUTs/2383_DWG_to_DWG_v2.cube
TITLE "Kodak 2383 DWG v2"
# Kodak 2383 print stock profile adapted for DaVinci Wide Gamut Intermediate input + output. v2, revised by Cullen Kelly Color on 4/21/22
# 
LUT_3D_SIZE 64
0.0000000000 0.0000000000 0.0000000000
0.0000000000 0.0000000000 0.0000000000
0.0000000000 0.0000000000 0.0000000000
0.0025177386 0.0009308003 0.0030060273
0.0127718013 0.0030670634 0.0075532158
0.0256504158 0.0106965743 0.0150453956
0.0380102235 0.0188906691 0.0189974823
0.0496223392 0.0309758145 0.0227969787
0.0588387884 0.0392156863 0.0296787976
0.0681010147 0.0454718853 0.0340276188
0.0770275425 0.0509346151 0.0364385443
0.0857099260 0.0564126040 0.0377813382
0.0970321202 0.0637369345 0.0331120775
0.1056687266 0.0682536049 0.0309758145
0.1179522393 0.0747844663 0.0330663005
0.1335622187 0.0831769284 0.0387731746
0.1465476463 0.0887006943 0.0432898451
0.1621576257 0.0981612879 0.0499275196
0.1786984054 0.1081559472 0.0573281453
0.1948577096 0.1164873732 0.0644083314
0.2097352560 0.1265278096 0.0766155489
0.2235446708 0.1360341802 0.0883649958
0.2366674296 0.1452964065 0.0992904555
0.2497596704 0.1522850385 0.1019760433
0.2622415503 0.1584802014 0.1041428244
0.2740978103 0.1638818952 0.1062790875
0.2833447776 0.1704280156 0.1161211566
0.2920881971 0.1770199130 0.1262989242
0.3008010986 0.1835812924 0.1359884031
0.3113298238 0.1888303960 0.1377279316
0.3242847333 0.1962157626 0.1399404898
0.3361715114 0.2046997787 0.1457694362
0.3467460136 0.2122529946 0.1546349279
0.3570458534 0.2188448920 0.1611657893
0.3678644999 0.2247501335 0.1631342031
0.3755092699 0.2299382010 0.1673914702
0.3841458762 0.2349736782 0.1724879835
0.3944762341 0.2399023423 0.1781948577
0.4055390249 0.2453955901 0.1843442435
0.4161287861 0.2439612421 0.1881589990
0.4272220951 0.2519264515 0.1949797818
0.4385748074 0.2618753338 0.2036316472
0.4487983520 0.2836957351 0.2300602731
0.4592355230 0.3044937819 0.2543221180
0.4701457237 0.3258564126 0.2802014191
0.4820019837 0.3483329519 0.3049210346
0.4950942245 0.3726253147 0.3295948730
0.5070572976 0.3947966735 0.3526054780
0.5212787060 0.4191653315 0.3770962081
0.5364003967 0.4441443503 0.4016174563
0.5515373465 0.4697947662 0.4257267109
0.5674525063 0.4946669718 0.4494087129
0.5842221714 0.5193255512 0.4730754559
0.5999084459 0.5420920119 0.4957503624
0.6164492256 0.5657740139 0.5191729610
0.6323949035 0.5884336614 0.5421988251
0.6451361868 0.6077210651 0.5663691157
0.6596932937 0.6275577935 0.5894254978
0.6717631800 0.6453650721 0.6132143130
0.6794079500 0.6572365911 0.6284885939
0.6849011978 0.6657816434 0.6404364080
0.6901503014 0.6737010758 0.6538185702
0.6945143816 0.6811474784 0.6629739834
0.6986800946 0.6884412909 0.6718699931
0.0000000000 0.0000000000 0.0000000000
0.0000000000 0.0000000000 0.0000000000
0.0000000000 0.0000000000 0.0000000000
0.0003051804 0.0001068132 0.0003662165
0.0098115511 0.0026550698 0.0072022583
0.0216830701 0.0079652094 0.0123445487
0.0342870222 0.0163729305 0.0181124590
0.0454871443 0.0263675898 0.0213626307
0.0554360266 0.0364232853 0.0266575113
0.0645304036 0.0433203632 0.0330968185
0.0742046235 0.0491798276 0.0356603342
0.0828259709 0.0545815213 0.0380865187
0.0943160143 0.0619058518 0.0343633173
0.1037766079 0.0673380636 0.0313420310
0.1145342184 0.0729076066 0.0318455787
0.1310292210 0.0820019837 0.0378881514
0.1444876783 0.0878309300 0.0425574121
0.1598535134 0.0966506447 0.0488899062
0.1765774014 0.1070878157 0.0564431220
0.1931029221 0.1155718318 0.0636148623
0.2083161669 0.1255359731 0.0753795682
0.2222629129 0.1351338979 0.0872816052
0.2355992981 0.1445487144 0.0984206912
0.2487678340 0.1517509728 0.1018081941
0.2613717861 0.1580987259 0.1040054932
0.2733806363 0.1635461967 0.1061417563
0.2828717479 0.1700770581 0.1155565728
0.2915388724 0.1766079194 0.1256733043
0.3002517739 0.1831692988 0.1353780423
0.3120012207 0.1894102388 0.1380483711
0.3247425040 0.1965667201 0.1401235981
0.3364766918 0.2050354772 0.1450370031
0.3466849775 0.2126192111 0.1536888685
0.3565575647 0.2193636988 0.1614404517
0.3673609522 0.2253147173 0.1633020523
0.3754634928 0.2308079652 0.1676813916
0.3837644007 0.2359655146 0.1726710918
0.3939421683 0.2405889982 0.1782101167
0.4050354772 0.2459143969 0.1843137255
0.4157320516 0.2459296559 0.1885862516
0.4269321736 0.2536659800 0.1953612573
0.4384527352 0.2624856947 0.2024872206
0.4487220569 0.2838635843 0.2288548104
0.4592050050 0.3045090410 0.2531776913
0.4701457237 0.3259174487 0.2793469139
0.4820019837 0.3483939879 0.3041733425
0.4950637064 0.3726710918 0.3289845121
0.5070267796 0.3948424506 0.3520866712
0.5212634470 0.4192263676 0.3766842145
0.5364156558 0.4442053864 0.4012970169
0.5515373465 0.4698405432 0.4254367895
0.5674525063 0.4946822309 0.4491493095
0.5842069123 0.5193408103 0.4728465705
0.5998779278 0.5420920119 0.4955672541
0.6164492256 0.5657892729 0.5190356298
0.6323796445 0.5884336614 0.5420614939
0.6451209277 0.6077210651 0.5662470436
0.6596780346 0.6275577935 0.5893339437
0.6717479210 0.6453498131 0.6131532769
0.6793926909 0.6572365911 0.6284428168
0.6849011978 0.6657816434 0.6403906310
0.6901350423 0.6736858167 0.6537727932
0.6945143816 0.6811474784 0.6629434653
0.6986648356 0.6884412909 0.6718547341
0.0000000000 0.0000000000 0.0000000000
0.0000000000 0.0000000000 0.0000000000
0.0000000000 0.0000000000 0.0000000000
0.0000000000 0.0000000000 0.0000000000
0.0089417868 0.0025482567 0.0071107042
0.0211947814 0.0076447700 0.0120241093
0.0338902876 0.0161135271 0.0180209049
0.0451209277 0.0259708553 0.0212405585
0.0551461051 0.0361791409 0.0263981079
0.0636758984 0.0428168154 0.0328679332
0.0728923476 0.0483863584 0.0353093767
0.0812695506 0.0536049439 0.0376440070
0.0917219806 0.0602273594 0.0354314488
0.1021591516 0.0665445945 0.0316624704
0.1115739681 0.0712596323 0.0307927062
0.1284809644 0.0805981537 0.0369268330
0.1425192645 0.0869764248 0.0418554971
0.1575036240 0.0951094835 0.0478370336
0.1744258793 0.1059891661 0.0555275807
0.1913481346 0.1146562905 0.0628366522
0.2068665599 0.1245288777 0.0741283284
0.2210116732 0.1342488746 0.0862287327
0.2345311666 0.1437857633 0.0975356680
0.2477607385 0.1512321660 0.1016403449
0.2605477989 0.1577325093 0.1038681621
0.2726787213 0.1632104982 0.1060044251
0.2823987182 0.1697261006 0.1150072480
0.2911116197 0.1762874800 0.1251850156
0.2996871901 0.1827420462 0.1347676814
0.3127031357 0.1899900816 0.1382925154
0.3251544976 0.1968871595 0.1402914473
0.3368123903 0.2054627298 0.1456015869
0.3463035019 0.2130159457 0.1533836881
0.3561150530 0.2193636988 0.1603112840
0.3667658503 0.2257419699 0.1634241245
0.3751277943 0.2314488441 0.1677576867
0.3833218891 0.2368963149 0.1728084230
0.3934996567 0.2413672084 0.1782864118
0.4045319295 0.2464484627 0.1842832074
0.4153505760 0.2479591058 0.1890440223
0.4266269932 0.2554665446 0.1957885100
0.4381933318 0.2639810788 0.2028229191
0.4486457618 0.2840161746 0.2276188296
0.4591744869 0.3045395590 0.2520332647
0.4701457237 0.3259632258 0.2784924086
0.4819867247 0.3484702831 0.3034256504
0.4950484474 0.3727016098 0.3283588922
0.5070115206 0.3948882277 0.3515526055
0.5212634470 0.4192874037 0.3762569619
0.5364309148 0.4442664225 0.4009613184
0.5515373465 0.4698710613 0.4251468681
0.5674525063 0.4947127489 0.4488899062
0.5841763943 0.5193560693 0.4726329442
0.5998474098 0.5420920119 0.4953688869
0.6164492256 0.5658045319 0.5188982986
0.6323643854 0.5884336614 0.5419241627
0.6451056687 0.6077210651 0.5661402304
0.6596627756 0.6275425345 0.5892576486
0.6717326619 0.6453498131 0.6130922408
0.6793926909 0.6572365911 0.6284122988
0.6848859388 0.6657663844 0.6403448539
0.6901350423 0.6736858167 0.6537270161
0.6945143816 0.6811474784 0.6629282063
0.6986648356 0.6884412909 0.6718394751
0.0058594644 0.0078431373 0.0078889143
0.0027466239 0.0036774243 0.0036926833
0.0000915541 0.0001220722 0.0001220722
0.0000000000 0.0000000000 0.0000000000
0.0080415045 0.0024109255 0.0070038911
0.0202487221 0.0069733730 0.0113679713
0.0335240711 0.0158693828 0.0179293507
0.0447089342 0.0254978256 0.0210879683
0.0548714427 0.0359502556 0.0261539635
0.0633096818 0.0425879301 0.0327763790
0.0725261311 0.0481574731 0.0352025635
0.0809185931 0.0533760586 0.0375371939
0.0911268788 0.0598458839 0.0356755932
0.1012283513 0.0660868238 0.0318608377
0.1093614099 0.0700694285 0.0302433814
0.1258564126 0.0791485466 0.0359502556
0.1407186999 0.0862134737 0.0412298772
0.1554283970 0.0937666896 0.0469214923
0.1724574655 0.1048599985 0.0546578164
0.1894712749 0.1136949722 0.0620126650
0.2052185855 0.1233844511 0.0726787213
0.2196383612 0.1332875563 0.0850690471
0.2333257038 0.1429312581 0.0965438315
0.2466620890 0.1506523232 0.1014419776
0.2596475166 0.1573357748 0.1037308309
0.2718242161 0.1628137636 0.1058365759
0.2817425803 0.1692225528 0.1141985199
0.2905317769 0.1758449683 0.1245288777
0.2993820096 0.1824826429 0.1342030976
0.3134050507 0.1905699245 0.1385671778
0.3255817502 0.1972075990 0.1404592966
0.3371175708 0.2058899825 0.1461814298
0.3457236591 0.2136720836 0.1553826200
0.3555809873 0.2197604334 0.1597314412
0.3660639353 0.2262455177 0.1635309377
0.3746852827 0.2318455787 0.1677271687
0.3827573053 0.2380102235 0.1737850004
0.3930571450 0.2422217136 0.1786221103
0.4039520867 0.2470283055 0.1842374304
0.4149080644 0.2503089952 0.1895933471
0.4262912947 0.2575417716 0.1962767987
0.4379186694 0.2656900893 0.2032349126
0.4485542077 0.2841992828 0.2261997406
0.4591439689 0.3045548180 0.2507515068
0.4701609827 0.3260090028 0.2775310903
0.4819867247 0.3485465782 0.3025864042
0.4950179294 0.3727473869 0.3276569772
0.5069962615 0.3949492638 0.3509727626
0.5212481880 0.4193484398 0.3757839322
0.5364461738 0.4443274586 0.4005798428
0.5515526055 0.4699168383 0.4248111696
0.5674525063 0.4947432670 0.4485999847
0.5841458762 0.5193713283 0.4723735409
0.5998168917 0.5420920119 0.4951552605
0.6164492256 0.5658197910 0.5187457084
0.6323643854 0.5884336614 0.5417715724
0.6451056687 0.6077210651 0.5660028992
0.6596475166 0.6275425345 0.5891660945
0.6717174029 0.6453345541 0.6130159457
0.6793926909 0.6572365911 0.6283665217
0.6848706798 0.6657511254 0.6402990768
0.6901197833 0.6736705577 0.6536812390
0.6944991226 0.6811474784 0.6629129473
0.6986648356 0.6884412909 0.6718242161
0.0250858320 0.0356145571 0.0358739605
0.0223849851 0.0317540246 0.0319981689
0.0199740597 0.0281681544 0.0283817807
0.0173800259 0.0242313268 0.0244144350
0.0196078431 0.0200656138 0.0185854887
0.0228732738 0.0145876249 0.0154268711
0.0344243534 0.0192111086 0.0203402762
0.0441748684 0.0249332418 0.0209201190
0.0544289311 0.0355840391 0.0257724880
0.0627756161 0.0422674907 0.0326390478
0.0720073243 0.0478370336 0.0350652323
0.0803997864 0.0530556191 0.0373846036
0.0903334096 0.0593423362 0.0359960327
0.1006637675 0.0658121614 0.0319676509
0.1087663081 0.0697795071 0.0303654536
0.1242236973 0.0782482643 0.0353551537
0.1388418402 0.0854047456 0.0405737392
0.1527580682 0.0920119020 0.0457312886
0.1703059434 0.1034561685 0.0536659800
0.1875333791 0.1126878767 0.0611429007
0.2035858701 0.1222400244 0.0712443732
0.2181429770 0.1322499428 0.0838025483
0.2319371328 0.1419394217 0.0953841459
0.2454566262 0.1500114443 0.1012436103
0.2585946441 0.1568780041 0.1035629816
0.2708934157 0.1623865110 0.1056687266
0.2810101472 0.1686732280 0.1133287556
0.2898298619 0.1753109026 0.1237201495
0.3006332494 0.1832150759 0.1338979171
0.3141222248 0.1911955444 0.1388570993
0.3260090028 0.1976501106 0.1408712902
0.3374074922 0.2063324941 0.1468223087
0.3459372854 0.2139772641 0.1557030594
0.3541924163 0.2206149386 0.1629663539
0.3652704662 0.2265659571 0.1633020523
0.3740901808 0.2322880903 0.1676508736
0.3823147936 0.2385290303 0.1740444038
0.3923552300 0.2437476158 0.1802853437
0.4031433585 0.2478370336 0.1848172732
0.4143892576 0.2530098421 0.1902342260
0.4258793011 0.2599374380 0.1968719005
0.4375829709 0.2677195392 0.2037232013
0.4484473945 0.2844129091 0.2245059892
0.4591134508 0.3046005951 0.2492866407
0.4701609827 0.3260700389 0.2764019226
0.4819867247 0.3486381323 0.3016098268
0.4949721523 0.3727779049 0.3268329900
0.5069657435 0.3949950408 0.3502708476
0.5212329290 0.4194247349 0.3752193484
0.5364766918 0.4444037537 0.4001373312
0.5515526055 0.4699626154 0.4244296941
0.5674525063 0.4947737850 0.4482642863
0.5841153582 0.5193865873 0.4720988785
0.5997711147 0.5420920119 0.4949111162
0.6164492256 0.5658503090 0.5185626001
0.6323491264 0.5884336614 0.5416037232
0.6450904097 0.6077210651 0.5658503090
0.6596322576 0.6275272755 0.5890592813
0.6717021439 0.6453192950 0.6129243915
0.6793774319 0.6572365911 0.6283207446
0.6848554208 0.6657358663 0.6402532998
0.6901045243 0.6736552987 0.6536354620
0.6944991226 0.6811474784 0.6628976883
0.6986648356 0.6884412909 0.6718089570
0.0300144961 0.0440680552 0.0407110704
0.0296330205 0.0432898451 0.0404974441
0.0294193942 0.0428320745 0.0403753719
0.0290684367 0.0421301595 0.0401922637
0.0322575723 0.0411993591 0.0376745251
0.0379644465 0.0406042573 0.0309605554
0.0437628748 0.0378423743 0.0338139925
0.0505836576 0.0393377584 0.0333257038
0.0553139544 0.0371862364 0.0305638209
0.0641947051 0.0443427176 0.0332951858
0.0711833371 0.0473334859 0.0348363470
0.0796368353 0.0525673304 0.0371709773
0.0892042420 0.0586251621 0.0364385443
0.0998397803 0.0654154269 0.0321355001
0.1079575799 0.0693827726 0.0305180438
0.1225909819 0.0773479820 0.0347600519
0.1374990463 0.0848401617 0.0401159686
0.1507133593 0.0906691081 0.0448462654
0.1679255360 0.1019150072 0.0525673304
0.1851529717 0.1114671550 0.0601052873
0.2017853056 0.1209735256 0.0696421759
0.2166170748 0.1311970703 0.0825055314
0.2306401160 0.1410238804 0.0943160143
0.2441290913 0.1493247883 0.1010452430
0.2573739223 0.1563591974 0.1033798734
0.2698710613 0.1619287404 0.1054703593
0.2803540093 0.1681696803 0.1125200275
0.2890669108 0.1747463188 0.1228503853
0.3019150072 0.1839627680 0.1335164416
0.3150835431 0.1920042725 0.1394216831
0.3265735866 0.1986877241 0.1423361563
0.3378500038 0.2072022583 0.1480582895
0.3461814298 0.2143434806 0.1560845350
0.3534294652 0.2213321126 0.1652857252
0.3639581903 0.2274204623 0.1668268864
0.3733882658 0.2329442283 0.1676050965
0.3816739147 0.2389410239 0.1742122530
0.3914244297 0.2454871443 0.1822232395
0.4020599680 0.2490730144 0.1861600671
0.4135042344 0.2543068589 0.1903715572
0.4253452354 0.2623178454 0.1974059663
0.4372014954 0.2701609827 0.2043335622
0.4483253223 0.2846417945 0.2224612802
0.4590829328 0.3046616312 0.2476081483
0.4701457237 0.3261310750 0.2750133516
0.4819867247 0.3487449454 0.3004501411
0.4949416342 0.3728236820 0.3258716716
0.5069352255 0.3950713359 0.3494773785
0.5212176699 0.4195162890 0.3745632105
0.5364919509 0.4444953079 0.3996185245
0.5515678645 0.4700083925 0.4239871824
0.5674372473 0.4948195621 0.4478828107
0.5840848402 0.5194171054 0.4717479210
0.5997253376 0.5420920119 0.4946211948
0.6164492256 0.5658655680 0.5183489738
0.6323338674 0.5884336614 0.5414053559
0.6450751507 0.6077210651 0.5656824598
0.6596017395 0.6275272755 0.5889219501
0.6716716258 0.6453040360 0.6128328374
0.6793774319 0.6572365911 0.6282597086
0.6848401617 0.6657206073 0.6401770047
0.6900892653 0.6736400397 0.6535744259
0.6944991226 0.6811474784 0.6628671702
0.6986648356 0.6884260319 0.6717784390
0.0363164721 0.0559395743 0.0489051652
0.0354009308 0.0542458228 0.0476691844
0.0349126421 0.0533607996 0.0470283055
0.0344090944 0.0523994812 0.0463569085
0.0359960327 0.0513160906 0.0456244755
0.0403753719 0.0490119783 0.0395971618
0.0513008316 0.0532387274 0.0405889982
0.0571908141 0.0514229038 0.0407415885
0.0638284886 0.0519264515 0.0432745861
0.0700389105 0.0545815213 0.0426642252
0.0769817655 0.0570687419 0.0420080873
0.0850080110 0.0596169986 0.0414892805
0.0914778363 0.0617074846 0.0410772869
0.1002517739 0.0659189746 0.0370183871
0.1070115206 0.0689097429 0.0307011521
0.1206836042 0.0762951095 0.0340581369
0.1359426261 0.0841840238 0.0395819028
0.1490196078 0.0897688258 0.0441748684
0.1659418631 0.1006332494 0.0516517891
0.1829404135 0.1103227283 0.0591439689
0.1996795605 0.1194934005 0.0677805753
0.2149233234 0.1301441978 0.0810864424
0.2292362860 0.1400320439 0.0931410697
0.2428625925 0.1486686503 0.1008316167
0.2562752728 0.1557793545 0.1031662470
0.2687571527 0.1614099336 0.1052719921
0.2795910582 0.1676050965 0.1116044862
0.2886549172 0.1743953613 0.1221179522
0.3033340963 0.1848020142 0.1331654841
0.3161516747 0.1929350729 0.1404745556
0.3273975738 0.2001373312 0.1442587930
0.3383230335 0.2082093538 0.1495078965
0.3465476463 0.2148470283 0.1566186007
0.3538109407 0.2217288472 0.1656214237
0.3623712520 0.2282597086 0.1711146715
0.3724879835 0.2342565042 0.1684901198
0.3809262226 0.2397344930 0.1745326925
0.3902647440 0.2475928893 0.1845273518
0.4008697642 0.2506599527 0.1878233005
0.4124361028 0.2555886168 0.1914854658
0.4244296941 0.2633096818 0.1973754482
0.4366063935 0.2722209506 0.2047608148
0.4481574731 0.2849469749 0.2200045777
0.4590371557 0.3047379263 0.2456702525
0.4701304646 0.3262226291 0.2731212329
0.4819714656 0.3488517586 0.2991073472
0.4948958572 0.3728847181 0.3247577630
0.5069047074 0.3951476310 0.3485313191
0.5212024109 0.4196231022 0.3738155184
0.5364766918 0.4445868620 0.3989929046
0.5515678645 0.4700694285 0.4234683757
0.5674372473 0.4948500801 0.4474250401
0.5840390631 0.5194476234 0.4713664454
0.5996795605 0.5420920119 0.4942854963
0.6164492256 0.5658960861 0.5181048295
0.6323033494 0.5884336614 0.5411764706
0.6450598917 0.6077058061 0.5654840925
0.6595712215 0.6275120165 0.5887846189
0.6716411078 0.6452887770 0.6127107652
0.6793621729 0.6572365911 0.6281986725
0.6848249027 0.6656900893 0.6401007095
0.6900740063 0.6736095216 0.6534981308
0.6944991226 0.6811474784 0.6628366522
0.6986495766 0.6884260319 0.6717479210
0.0395056077 0.0614785992 0.0548867018
0.0391241321 0.0608224613 0.0541695277
0.0388799878 0.0603952087 0.0537270161
0.0386511025 0.0599984741 0.0532997635
0.0391851682 0.0600289921 0.0521705959
0.0455634394 0.0609140154 0.0495002670
0.0541542687 0.0615701534 0.0484016175
0.0640573739 0.0654459449 0.0505226215
0.0708171206 0.0637216754 0.0531013962
0.0757000076 0.0644693675 0.0521095598
0.0831006332 0.0658884565 0.0517433433
0.0903944457 0.0694590677 0.0518806744
0.0982223239 0.0725566491 0.0521400778
0.1063706416 0.0740367742 0.0520485237
0.1151903563 0.0782024872 0.0496833753
0.1240405890 0.0815594720 0.0466010529
0.1369192035 0.0845044633 0.0398870832
0.1494163424 0.0907759213 0.0445868620
0.1637140459 0.0991683833 0.0506294347
0.1806210422 0.1091477836 0.0581521324
0.1975738155 0.1180132753 0.0659037156
0.2129549096 0.1287708858 0.0793926909
0.2276340887 0.1389028763 0.0917982757
0.2414892805 0.1479514763 0.1006179904
0.2551155871 0.1551537346 0.1029526207
0.2677958343 0.1609826810 0.1050888838
0.2788738842 0.1670557717 0.1107194629
0.2911268788 0.1758907454 0.1219501030
0.3051194018 0.1859464408 0.1336385138
0.3173113603 0.1939269093 0.1416037232
0.3283131151 0.2017395285 0.1463340200
0.3385976959 0.2089875639 0.1509117266
0.3469748989 0.2154268711 0.1572747387
0.3542229343 0.2221866178 0.1659418631
0.3617608911 0.2290836957 0.1730678264
0.3714198520 0.2354924849 0.1740444038
0.3800869764 0.2413977264 0.1751735714
0.3895017929 0.2484473945 0.1848477913
0.3997405966 0.2527656977 0.1900053407
0.4111543450 0.2571450370 0.1928435187
0.4233310445 0.2644998856 0.1973449302
0.4356755932 0.2731212329 0.2046997787
0.4479591058 0.2851911192 0.2168917372
0.4589761196 0.3047989624 0.2435339895
0.4700999466 0.3262836652 0.2709239338
0.4819714656 0.3489738308 0.2975509270
0.4948348211 0.3729304952 0.3234454871
0.5068589303 0.3952239261 0.3474326696
0.5211871519 0.4197299153 0.3729152361
0.5364461738 0.4446784161 0.3982299535
0.5515831235 0.4701304646 0.4228580148
0.5674372473 0.4949111162 0.4468909743
0.5839932860 0.5194628824 0.4709086748
0.5996185245 0.5420920119 0.4938887617
0.6164492256 0.5659266041 0.5178301671
0.6322880903 0.5884489204 0.5409018082
0.6450446326 0.6077058061 0.5652399481
0.6595407034 0.6274967575 0.5886015106
0.6716105898 0.6452735180 0.6125581750
0.6793621729 0.6572518502 0.6281223774
0.6847943847 0.6656748302 0.6400091554
0.6900434882 0.6735942626 0.6534218357
0.6944991226 0.6811474784 0.6628061341
0.6986495766 0.6884260319 0.6717174029
0.0428778515 0.0731670100 0.0617990387
0.0425879301 0.0722056916 0.0612191958
0.0422217136 0.0709086748 0.0604562448
0.0419928283 0.0701457237 0.0600137331
0.0416418708 0.0689097429 0.0592813001
0.0475165942 0.0695201038 0.0549172198
0.0572060731 0.0726787213 0.0559243153
0.0661173419 0.0735484855 0.0570077058
0.0776684215 0.0786297398 0.0625619898
0.0824750134 0.0757610437 0.0608834974
0.0891889830 0.0771496147 0.0606393530
0.0953536278 0.0783550774 0.0603036545
0.1018692302 0.0808880751 0.0600595102
0.1122148470 0.0851148241 0.0596322576
0.1203021286 0.0867933165 0.0595407034
0.1306935225 0.0897840848 0.0561532006
0.1429617762 0.0937209125 0.0534981308
0.1553521019 0.0980697337 0.0506904707
0.1701228351 0.1039902342 0.0538033112
0.1846646830 0.1130083162 0.0605325399
0.1974059663 0.1193560693 0.0661020829
0.2108796826 0.1273212787 0.0773022049
0.2256656748 0.1375143053 0.0901503014
0.2404364080 0.1474174105 0.1004654002
0.2540321965 0.1545738918 0.1027542535
0.2668039979 0.1605249104 0.1049210346
0.2797741665 0.1675593194 0.1102616922
0.2937056535 0.1775234607 0.1221026932
0.3067521172 0.1870450904 0.1342030976
0.3189440757 0.1959258412 0.1436331731
0.3294422827 0.2036011292 0.1486839094
0.3390859846 0.2100251774 0.1526207370
0.3474479286 0.2160830091 0.1579613947
0.3547570001 0.2227512016 0.1663080797
0.3621576257 0.2296787976 0.1734645609
0.3696498054 0.2371709773 0.1801327535
0.3790035859 0.2428168154 0.1772640574
0.3884794385 0.2491950866 0.1850461585
0.3981078813 0.2553139544 0.1925688563
0.4095674067 0.2590981918 0.1945220111
0.4220187686 0.2659647517 0.1973449302
0.4345616846 0.2742198825 0.2046540017
0.4476997024 0.2855115587 0.2130006867
0.4587624933 0.3049820706 0.2409552148
0.4700389105 0.3262989242 0.2683146410
0.4819256886 0.3490348669 0.2956435492
0.4947737850 0.3730067903 0.3219195850
0.5068131533 0.3953307393 0.3461356527
0.5211566339 0.4198672465 0.3718776226
0.5364156558 0.4448004883 0.3973449302
0.5515831235 0.4702067597 0.4221408408
0.5674372473 0.4949721523 0.4462653544
0.5839322499 0.5195086595 0.4703746090
0.5995422293 0.5420767529 0.4934462501
0.6164339666 0.5659723812 0.5174944686
0.6322575723 0.5884489204 0.5405813687
0.6450141146 0.6077058061 0.5649652857
0.6595101854 0.6274814984 0.5884031434
0.6715800717 0.6452429999 0.6123750668
0.6793469139 0.6572518502 0.6280460822
0.6847791257 0.6656443122 0.6399023423
0.6900282292 0.6735637446 0.6533150225
0.6944838636 0.6811474784 0.6627603571
0.6986343175 0.6884107729 0.6716716258
0.0503395132 0.0819714656 0.0706797894
0.0499732967 0.0816205081 0.0702677958
0.0487678340 0.0804150454 0.0689250019
0.0482337682 0.0798809796 0.0683299001
0.0473640040 0.0789959564 0.0673380636
0.0500801099 0.0783398184 0.0653543908
0.0557106889 0.0794842451 0.0620126650
0.0676737621 0.0815747311 0.0654154269
0.0786602579 0.0848554208 0.0674753948
0.0879224842 0.0883955138 0.0691081102
0.0946517128 0.0881361105 0.0686350805
0.1016098268 0.0886091402 0.0683604181
0.1062333104 0.0893263142 0.0679026474
0.1164415961 0.0932784009 0.0661631189
0.1260852979 0.0960708019 0.0662851911
0.1354238193 0.0984664683 0.0645761807
0.1495384146 0.1026016632 0.0584115358
0.1627679866 0.1057297627 0.0557412070
0.1763790341 0.1125963226 0.0583352407
0.1907530327 0.1184710460 0.0640268559
0.2046692607 0.1249561303 0.0700694285
0.2184786755 0.1332570382 0.0778973068
0.2320286870 0.1414358740 0.0849011978
0.2439459831 0.1499198901 0.1001754788
0.2534218357 0.1543144884 0.1028152895
0.2672312505 0.1609826810 0.1053788052
0.2826581216 0.1697413596 0.1118638895
0.2957351034 0.1790951400 0.1231555657
0.3083848325 0.1883115892 0.1348744945
0.3205004959 0.1968108644 0.1423514153
0.3305867094 0.2044251164 0.1480582895
0.3396200504 0.2107576104 0.1530022126
0.3483634699 0.2171511406 0.1588158999
0.3554741741 0.2234988937 0.1668268864
