UffyLook Opensource/DCTLs & LUTs/2383_DWG_to_DWG_v2.cube
TITLE "Kodak 2383 DWG v2"
# Kodak 2383 print stock profile adapted for DaVinci Wide Gamut Intermediate input + output. v2, revised by Cullen Kelly Color on 4/21/22
# 
LUT_3D_SIZE 8
0.0000000000 0.0000000000 0.0000000000
0.0681010147 0.0454718853 0.0340276188
0.1786984054 0.1081559472 0.0573281453
0.2920881971 0.1770199130 0.1262989242
0.3841458762 0.2349736782 0.1724879835
0.4820019837 0.3483329519 0.3049210346
0.6164492256 0.5657740139 0.5191729610
0.6986800946 0.6884412909 0.6718699931
0.0503395132 0.0819714656 0.0706797894
0.0879224842 0.0883955138 0.0691081102
0.1763790341 0.1125963226 0.0583352407
0.2957351034 0.1790951400 0.1231555657
0.3776607919 0.2445258259 0.1843289845
0.4818493935 0.3490653849 0.2934004730
0.6164339666 0.5660181582 0.5171129931
0.6986343175 0.6884107729 0.6716258488
0.1190356298 0.1767299916 0.1443808652
0.1129930571 0.1773250935 0.1379568170
0.2384374762 0.2182192721 0.1199664302
0.3481803616 0.2511787594 0.1730067903
0.3892576486 0.2613565270 0.1896391241
0.4744335088 0.3533379110 0.2458075837
0.6148470283 0.5655146105 0.5071793698
0.6985275044 0.6883344778 0.6708781567
0.2393072404 0.3197070268 0.2644388495
0.2342107271 0.3163653010 0.2496833753
0.2984206912 0.3578240635 0.2144197757
0.4553292134 0.4254215305 0.2808422980
0.4736858167 0.4068818189 0.2728465705
0.4653543908 0.3797512779 0.2565499351
0.6046387427 0.5577019913 0.4548867018
0.6973678187 0.6865949493 0.6670481422
0.3552910658 0.4640726329 0.4220340276
0.3529259174 0.4614175631 0.4140230411
0.3462119478 0.4544899672 0.3661249714
0.5037460899 0.5071335927 0.3489738308
0.6065003433 0.5753566796 0.3734950790
0.5593804837 0.5226367590 0.3462119478
0.5523155566 0.5119096666 0.3385061418
0.6912336919 0.6789501793 0.6424963760
0.5394216831 0.6149996185 0.5985809110
0.5396810864 0.6146181430 0.5975585565
0.5402609293 0.6122224765 0.5902800031
0.5479972534 0.6036316472 0.5508201724
0.6348516060 0.6275272755 0.5321278706
0.6671854734 0.6509956512 0.5597161822
0.5876554513 0.5569695583 0.3642938888
0.5858701457 0.5551689937 0.3635767147
0.6600900282 0.6887769894 0.6847486076
0.6600595102 0.6886549172 0.6846417945
0.6599221790 0.6881971466 0.6841687648
0.6598001068 0.6867017624 0.6807660029
0.6639200427 0.6849927520 0.6654154269
0.6978561074 0.6942092012 0.6596169986
0.7047989624 0.7005722133 0.6796978714
0.5977416648 0.5664454108 0.3682307164
0.7091172656 0.7114824140 0.7115587091
0.7091172656 0.7114824140 0.7115587091
0.7091172656 0.7114824140 0.7115587091
0.7091172656 0.7114824140 0.7115587091
0.7090714885 0.7114824140 0.7115434501
0.7095292592 0.7112077516 0.7100175479
0.7111924926 0.7108567941 0.7074845502
0.7116350042 0.7115129320 0.7103532464
0.0239871824 0.0444647898 0.0752422370
0.0717631800 0.0592355230 0.0765239948
0.1762264439 0.1049515526 0.0852826734
0.3004043641 0.1560540169 0.1131609064
0.3928587778 0.2125886931 0.1693446250
0.4821087968 0.3471885252 0.3151598383
0.6165102617 0.5656061646 0.5213092241
0.6987106126 0.6884718090 0.6721446555
0.0631265736 0.0883955138 0.0943465324
0.0906843671 0.0962844282 0.0977492943
0.1924010071 0.1148851759 0.0631876097
0.2915846494 0.1766384375 0.1257343404
0.3849393454 0.2350652323 0.1728389410
0.4822308690 0.3487754635 0.3054856184
0.6165102617 0.5658655680 0.5192797742
0.6986800946 0.6884412909 0.6718852522
0.1220569162 0.1814755474 0.1603265431
0.1231860838 0.1799038682 0.1494468605
0.2404211490 0.2199893187 0.1213397421
0.3482566567 0.2480048829 0.1704737926
0.3878843366 0.2593728542 0.1893186847
0.4793011368 0.3521477073 0.2536354620
0.6154879072 0.5658960861 0.5101396201
0.6985427634 0.6883497368 0.6710460060
0.2441290913 0.3266193637 0.2819714656
0.2417029068 0.3227435721 0.2671244373
0.2829480430 0.3611505303 0.2162966354
0.4582589456 0.4284275578 0.2829022660
0.4674143587 0.3977569238 0.2667277028
0.4648203250 0.3788357366 0.2559243153
0.6058594644 0.5589684901 0.4596780346
0.6974593729 0.6867475395 0.6673380636
0.3581292439 0.4674601358 0.4305790799
0.3561455711 0.4653849088 0.4231784543
0.3465171283 0.4562752728 0.3807736324
0.5032730602 0.5086442359 0.3545891508
0.6070649271 0.5761043717 0.3756313420
0.5593194476 0.5225452049 0.3461661707
0.5522240024 0.5118028534 0.3384298466
0.6914473182 0.6792401007 0.6431982910
0.5395437552 0.6155794614 0.5997558556
0.5397878996 0.6152132448 0.5987640192
0.5404745556 0.6131227588 0.5925841154
0.5454032197 0.6029144732 0.5533226520
0.6347600519 0.6278477150 0.5335622187
0.6673380636 0.6511940185 0.5601281758
0.5876401923 0.5569695583 0.3642938888
0.5858548867 0.5551689937 0.3635767147
0.6601815824 0.6889143206 0.6848859388
0.6601510643 0.6887922484 0.6847638666
0.6600137331 0.6883344778 0.6843060960
0.6598611429 0.6867780575 0.6809796292
0.6636758984 0.6849011978 0.6655069810
0.6979018845 0.6943160143 0.6598458839
0.7048142214 0.7005874723 0.6797589075
0.5977416648 0.5664454108 0.3682307164
0.7091172656 0.7114824140 0.7115587091
0.7091172656 0.7114824140 0.7115587091
0.7091172656 0.7114824140 0.7115587091
0.7091172656 0.7114824140 0.7115587091
0.7090714885 0.7114824140 0.7115434501
0.7095140002 0.7112077516 0.7100480659
0.7111924926 0.7108567941 0.7074845502
0.7116350042 0.7115129320 0.7103532464
0.0744487678 0.1164415961 0.1691767758
0.0748455024 0.0920881971 0.1724422065
0.1652704662 0.1210040436 0.1839932860
0.3043869688 0.1429159991 0.2012359808
0.4072022583 0.2070344091 0.2558785382
0.4859235523 0.3501640345 0.3556267643
0.6167238880 0.5648584726 0.5292133974
0.6988784619 0.6886091402 0.6731212329
0.0779888609 0.1229266804 0.1651941711
0.0912489509 0.1367055772 0.2011596857
0.1790493629 0.1261768521 0.1985198749
0.3027084764 0.1358358129 0.1817502098
0.4059205005 0.2015411612 0.2386053254
0.4850385290 0.3482719158 0.3450675212
0.6167391470 0.5651483940 0.5272449836
0.6988326848 0.6885786221 0.6728770886
0.1380788891 0.2020904860 0.2169222553
0.1424582284 0.2072632944 0.2225070573
0.2499427787 0.2538033112 0.2650492103
0.3937285420 0.2409094377 0.2128786145
0.3879453727 0.2356908522 0.1742275120
0.4831158923 0.3504386969 0.3075761044
0.6167696651 0.5662317845 0.5196917678
0.6986953536 0.6884718090 0.6719310292
0.2533607996 0.3380941482 0.3220416571
0.2512703136 0.3350728618 0.3143053330
0.2686198215 0.3522545205 0.2954604410
0.4634012360 0.4334935531 0.2863660639
0.4778973068 0.4062561990 0.2787365530
0.4626688029 0.3751583124 0.2535591669
0.6097810330 0.5624933242 0.4762951095
0.6978255894 0.6873121233 0.6684824903
0.3664148928 0.4777904936 0.4545204852
0.3649042496 0.4760357061 0.4502479591
0.3584649424 0.4689707790 0.4262607767
0.5001297017 0.5155260548 0.3804379339
0.6091096361 0.5786831464 0.3847562371
0.5541161212 0.5157854582 0.3422293431
0.5519340810 0.5113603418 0.3381094072
0.6922407874 0.6803082322 0.6458533608
0.5404287785 0.6179751278 0.6045471885
0.5405050736 0.6175478752 0.6034485389
0.5411764706 0.6160524910 0.5994659342
0.5426871138 0.6057831693 0.5666590372
0.6343633173 0.6291142138 0.5389486534
0.6679026474 0.6518959335 0.5616388190
0.5876249332 0.5569542992 0.3642938888
0.5858396277 0.5551384756 0.3635614557
0.6605172808 0.6894026093 0.6853742275
0.6604867628 0.6892957961 0.6852521553
0.6603341726 0.6888532845 0.6848096437
0.6600900282 0.6870374609 0.6818036164
0.6627145800 0.6845044633 0.6658579385
0.6980849928 0.6947127489 0.6606851301
0.7048599985 0.7006485084 0.6800335698
0.5977416648 0.5664454108 0.3682307164
0.7091325246 0.7114976730 0.7115587091
0.7091325246 0.7114976730 0.7115587091
0.7091325246 0.7114976730 0.7115587091
0.7091325246 0.7114824140 0.7115587091
0.7090867475 0.7114824140 0.7115434501
0.7094682231 0.7112382696 0.7102006561
0.7111924926 0.7108567941 0.7074845502
0.7116350042 0.7115281910 0.7103837644
0.1320820935 0.1889982452 0.2472571908
0.1276569772 0.1836423285 0.2402990768
0.1792477302 0.1626001373 0.3005264363
0.3031967651 0.1940184634 0.3117112993
0.4075532158 0.2452735180 0.3567711910
0.5015640497 0.3852445258 0.4476539254
0.6233768215 0.5693446250 0.5609063859
0.6994430457 0.6890974289 0.6767833982
0.1279011215 0.1841916533 0.2407110704
0.1297169451 0.1862821393 0.2435645075
0.1727321279 0.1617761501 0.3004501411
0.3024032959 0.1934081025 0.3109941253
0.4064698253 0.2429846647 0.3527580682
0.5008468757 0.3836270695 0.4444037537
0.6231479362 0.5691920348 0.5593194476
0.6994125277 0.6890669108 0.6765545129
0.1806363012 0.2482795453 0.2958266575
0.1779049363 0.2448157473 0.2946059358
0.2380560006 0.2974288548 0.4031128405
0.3854581521 0.2712291142 0.3881284810
0.4010376135 0.2326543069 0.3343862058
0.4981612879 0.3774624247 0.4299534600
0.6220645457 0.5683527886 0.5529106584
0.6992751965 0.6889600977 0.6756694896
0.2711070420 0.3561608301 0.3736171511
0.2723887999 0.3576714733 0.3750820172
0.3000228885 0.3907072557 0.4066224155
0.4769817655 0.4728160525 0.4685130083
0.5176623178 0.4183108263 0.4071717403
0.4865339132 0.3568322271 0.3156023499
0.6177615015 0.5676050965 0.5212787060
0.6987411307 0.6885328450 0.6720836194
0.3742580301 0.4854505226 0.4862134737
0.3740749218 0.4850232700 0.4850537881
0.3730830854 0.4841229877 0.4809796292
0.4288395514 0.5228961624 0.4747386893
0.6161593042 0.5872739757 0.4195010300
0.6009308003 0.5636072328 0.3831692988
0.5507133593 0.5095597772 0.3368581674
0.6947280079 0.6837109941 0.6542153048
0.5409018082 0.6226443885 0.6184481575
0.5411459525 0.6225833524 0.6178988327
0.5421225299 0.6221866178 0.6152437629
0.5450827802 0.6184328985 0.6012664988
0.6329442283 0.6348516060 0.5603723201
0.6699931334 0.6545510033 0.5671168078
0.5868009461 0.5561150530 0.3639581903
0.5857480735 0.5550469215 0.3635309377
0.6618142977 0.6912489509 0.6871900511
0.6617685206 0.6911421378 0.6870832380
0.6616464485 0.6907454032 0.6866712444
0.6610971237 0.6890821698 0.6850232700
0.6611581598 0.6849927520 0.6709544518
0.6984512093 0.6956435492 0.6637979706
0.7050431067 0.7008773938 0.6810711833
0.5977416648 0.5664454108 0.3682307164
0.7091783017 0.7114976730 0.7115587091
0.7091783017 0.7114976730 0.7115587091
0.7091783017 0.7114976730 0.7115587091
0.7091783017 0.7114976730 0.7115587091
0.7091477836 0.7114976730 0.7115587091
0.7093003738 0.7113450828 0.7107652399
0.7111924926 0.7108567941 0.7074845502
0.7116502632 0.7115434501 0.7104448005
0.1589684901 0.2201113909 0.2859082933
0.1582970932 0.2192874037 0.2852216373
0.1803311208 0.2094911116 0.3444419013
0.3107347219 0.2319371328 0.3759822995
0.3821316854 0.2663920043 0.3867704280
0.4999771115 0.3877622644 0.4984969863
0.6399481193 0.5942778668 0.6243686580
0.7016098268 0.6916304265 0.6880598154
0.1588464179 0.2199740597 0.2858014801
0.1589379721 0.2200656138 0.2858777752
0.1678492409 0.2176394293 0.3339894713
0.3076523995 0.2309758145 0.3754024567
0.3820706493 0.2663462272 0.3867246509
0.4995651179 0.3871061265 0.4978561074
0.6397955291 0.5940642405 0.6240177005
0.7015487907 0.6915083543 0.6878767071
0.1953002213 0.2636453803 0.3256427863
0.1925078202 0.2602731365 0.3228809033
0.1989929046 0.2666361486 0.3387655451
0.3249561303 0.2488746471 0.4001983673
0.3818417639 0.2661783780 0.3865262837
0.4979781796 0.3845731289 0.4953231098
0.6390936141 0.5931029221 0.6220035096
0.7013351644 0.6911726558 0.6872205692
0.2818493935 0.3679713130 0.4054779889
0.2793621729 0.3646753643 0.4028992142
0.2841992828 0.3714808881 0.4125123980
0.4485389487 0.4746471351 0.5503318837
0.5179064622 0.4250247959 0.5289845121
0.4920424201 0.3739681086 0.4839856565
0.6360112917 0.5889219501 0.6115510796
0.7008773938 0.6906385901 0.6847486076
0.3676661326 0.4798199435 0.4985275044
0.3685816739 0.4809948882 0.4996108949
0.3719996948 0.4854047456 0.5036850538
0.4109102007 0.5462729839 0.5627222095
0.6323796445 0.6316777295 0.6222781720
0.6455176623 0.6065003433 0.5788815137
0.6216220340 0.5729610132 0.5273517967
0.6989089799 0.6888075074 0.6726939803
0.5248798352 0.6262760357 0.6330968185
0.5250476844 0.6261844816 0.6328984512
0.5257190814 0.6260013733 0.6323338674
0.5278553445 0.6253452354 0.6301976043
0.5962310216 0.6476539254 0.6282749676
0.6772259098 0.6634470130 0.5881742580
0.6749828336 0.6599374380 0.5849240864
0.5853665980 0.5546807050 0.3633783474
0.6614480812 0.6931258106 0.6912642100
0.6614938582 0.6931258106 0.6912184329
0.6616617075 0.6931105516 0.6910505837
0.6623331044 0.6930495155 0.6903181506
0.6628366522 0.6896162356 0.6854505226
0.6990920882 0.6981765469 0.6751506828
0.7055619135 0.7015335317 0.6839856565
0.6455481804 0.6239414054 0.5029983978
0.7093766690 0.7115281910 0.7115892271
0.7093766690 0.7115281910 0.7115892271
0.7093766690 0.7115281910 0.7115739681
0.7093614099 0.7115281910 0.7115739681
0.7093308919 0.7115129320 0.7115739681
0.7091783017 0.7114976730 0.7115587091
0.7111924926 0.7108567941 0.7074845502
0.7116960403 0.7116044862 0.7107347219
0.1749752041 0.2392309453 0.3043259327
0.1749752041 0.2392309453 0.3043259327
0.1745021744 0.2386511025 0.3038529030
0.2979324025 0.2423590448 0.3971923400
0.3916990921 0.2822003510 0.4128938735
0.4687113756 0.3297779812 0.4825360494
0.6352330816 0.5845426108 0.6436408026
0.7062790875 0.6997177081 0.7046921492
0.1749752041 0.2392309453 0.3043259327
0.1749752041 0.2392309453 0.3043259327
0.1749752041 0.2392309453 0.3043259327
0.2934462501 0.2412756542 0.3965819791
0.3915465019 0.2821698329 0.4128938735
0.4687876707 0.3298237583 0.4826276036
0.6351415274 0.5844052796 0.6435339895
0.7062790875 0.6997177081 0.7046921492
0.1749752041 0.2392309453 0.3043259327
0.1749752041 0.2392309453 0.3043259327
0.1749752041 0.2392309453 0.3043259327
0.2737926299 0.2371557183 0.3945067521
0.3909056229 0.2820019837 0.4129091325
0.4690775921 0.3300373846 0.4829785611
0.6347600519 0.5838559548 0.6431219959
0.7062485695 0.6996566720 0.7046768902
0.2654154269 0.3482566567 0.3972991531
0.2643930724 0.3470054170 0.3964293889
0.2603341726 0.3419851987 0.3929503319
0.3501182574 0.4114595254 0.5128252079
0.4805981537 0.3743648432 0.5124589914
0.4702983139 0.3308918898 0.4843976501
0.6333104448 0.5818112459 0.6415045396
0.7061570153 0.6994583047 0.7046158541
0.3336537728 0.4318913558 0.4586404211
0.3335927367 0.4318455787 0.4585946441
0.3333638514 0.4316472114 0.4584115358
0.3886015106 0.5135576410 0.5382619974
0.6145418479 0.6290074006 0.6634164950
0.6402075227 0.5933012894 0.6492408637
0.6268406195 0.5727473869 0.6341344320
0.7054398413 0.6981307698 0.7022049287
0.4619058518 0.6085145342 0.6251926452
0.4625009537 0.6088197147 0.6254520485
0.4648508431 0.6099794003 0.6264591440
0.4740520333 0.6143282216 0.6302891585
0.5688868544 0.6564736400 0.6672617685
0.7002975509 0.7026626993 0.6995651179
0.7029678798 0.6949568933 0.6875410086
0.6995956359 0.6898298619 0.6750286107
0.6557717250 0.6930495155 0.6962233921
0.6557869841 0.6930342565 0.6961928740
0.6558327611 0.6930189975 0.6961318379
0.6560311284 0.6931258106 0.6962233921
0.6568856336 0.6935072862 0.6966201266
0.6879377432 0.7017624170 0.6968032349
0.7072861830 0.7041733425 0.6914930953
0.7092240787 0.7079880980 0.6953383688
0.7097428855 0.7115739681 0.7116197452
0.7097428855 0.7115739681 0.7116197452
0.7097428855 0.7115739681 0.7116197452
0.7097428855 0.7115739681 0.7116197452
0.7097428855 0.7115739681 0.7116197452
0.7096971084 0.7115739681 0.7116197452
0.7115129320 0.7113298238 0.7095292592
0.7118638895 0.7118486305 0.7117875944
0.1749752041 0.2392309453 0.3043259327
0.1749752041 0.2392309453 0.3043259327
0.1749752041 0.2392309453 0.3043259327
0.1749752041 0.2392309453 0.3043259327
0.4001678492 0.2838788434 0.4287785153
0.4285343709 0.2975204089 0.4379339284
0.5871824216 0.5098039216 0.6028992142
0.7062027924 0.6987563897 0.7084000916
0.1749752041 0.2392309453 0.3043259327
0.1749752041 0.2392309453 0.3043259327
0.1749752041 0.2392309453 0.3043259327
0.1749752041 0.2392309453 0.3043259327
0.3997863737 0.2836957351 0.4288090333
0.4285038529 0.2975356680 0.4379186694
0.5872129397 0.5098496986 0.6029297322
0.7062027924 0.6987411307 0.7084000916
0.1749752041 0.2392309453 0.3043259327
0.1749752041 0.2392309453 0.3043259327
0.1749752041 0.2392309453 0.3043259327
0.1749752041 0.2392309453 0.3043259327
0.3983367666 0.2829938201 0.4289311055
0.4284275578 0.2975661860 0.4378576333
0.5873197528 0.5100022889 0.6030212863
0.7061875334 0.6987106126 0.7083848325
0.1749752041 0.2392309453 0.3043259327
0.1749752041 0.2392309453 0.3043259327
0.1749752041 0.2392309453 0.3043259327
0.1749752041 0.2392309453 0.3043259327
0.3912718395 0.2790569924 0.4282444495
0.4280918593 0.2976729992 0.4376287480
0.5877470054 0.5106584268 0.6034180209
0.7061112383 0.6985580224 0.7083390555
0.3267566949 0.4251621271 0.4543678950
0.3266498817 0.4250247959 0.4542763409
0.3262378882 0.4245212482 0.4539253834
0.3246051728 0.4224155032 0.4525062943
0.5732356756 0.5935606928 0.6428473335
0.6160830091 0.5575188830 0.6325322347
0.5893949798 0.5131914244 0.6049591821
0.7058670939 0.6979629206 0.7081864652
0.3461509117 0.4505683986 0.4743419547
0.3461356527 0.4505531395 0.4743266957
0.3460898756 0.4504921035 0.4742504005
0.3459372854 0.4502632181 0.4739909972
0.5656519417 0.6557564660 0.6684824903
0.6988784619 0.7023575189 0.7085679408
0.7056229496 0.6974135958 0.7080338750
0.7047684443 0.6954299229 0.7074845502
0.6340886549 0.6865491722 0.6935225452
0.6341344320 0.6865644312 0.6935378042
0.6343480583 0.6866407263 0.6935835813
0.6351720455 0.6869306477 0.6937666896
0.6384069581 0.6880903334 0.6944838636
0.6789044022 0.7015640497 0.7063096056
0.7118638895 0.7118638895 0.7118638895
0.7118638895 0.7118638895 0.7118638895
0.7090257115 0.7114824140 0.7115434501
0.7090257115 0.7114824140 0.7115434501
0.7090409705 0.7114824140 0.7115434501
0.7090409705 0.7114824140 0.7115434501
0.7090714885 0.7114824140 0.7115434501
0.7091477836 0.7114976730 0.7115587091
0.7118638895 0.7118638895 0.7118638895
0.7118638895 0.7118638895 0.7118638895
0.1749752041 0.2392309453 0.3043259327
0.1749752041 0.2392309453 0.3043259327
0.1749752041 0.2392309453 0.3043259327
0.1749752041 0.2392309453 0.3043259327
0.1841458762 0.2422369726 0.3310749981
0.4275730526 0.2977492943 0.4372777905
0.4392004273 0.3009689479 0.4476386664
0.6935683223 0.6766308080 0.6979629206
0.1749752041 0.2392309453 0.3043259327
0.1749752041 0.2392309453 0.3043259327
0.1749752041 0.2392309453 0.3043259327
0.1749752041 0.2392309453 0.3043259327
0.1765926604 0.2408331426 0.3080033570
0.4275425345 0.2977645533 0.4372625315
0.4392004273 0.3009689479 0.4476386664
0.6935835813 0.6766308080 0.6979629206
0.1749752041 0.2392309453 0.3043259327
0.1749752041 0.2392309453 0.3043259327
0.1749752041 0.2392309453 0.3043259327
0.1749752041 0.2392309453 0.3043259327
0.1749752041 0.2392309453 0.3043259327
0.4274204623 0.2977645533 0.4371709773
0.4392004273 0.3009689479 0.4476386664
0.6935835813 0.6766460670 0.6979629206
0.1749752041 0.2392309453 0.3043259327
0.1749752041 0.2392309453 0.3043259327
0.1749752041 0.2392309453 0.3043259327
0.1749752041 0.2392309453 0.3043259327
0.1749752041 0.2392309453 0.3043259327
0.4269321736 0.2978103304 0.4368505379
0.4392004273 0.3009689479 0.4476386664
0.6936446174 0.6767223621 0.6979934386
0.1749752041 0.2392309453 0.3043259327
0.1749752041 0.2392309453 0.3043259327
0.1749752041 0.2392309453 0.3043259327
0.1749752041 0.2392309453 0.3043259327
0.1749752041 0.2392309453 0.3043259327
0.4244602121 0.2979018845 0.4353551537
0.4392004273 0.3009689479 0.4476386664
0.6938429847 0.6770275425 0.6980849928
0.3453269245 0.4476539254 0.4720378424
0.3453269245 0.4476386664 0.4720225834
0.3453116655 0.4475776303 0.4719768063
0.3452811475 0.4473487449 0.4718242161
0.3452811475 0.4465552758 0.4712291142
0.6894178683 0.6930495155 0.7018539712
0.7039291981 0.6936903944 0.7063859007
0.6946364538 0.6781872282 0.6984512093
0.3638056001 0.4753795682 0.4984512093
0.3638056001 0.4753795682 0.4984512093
0.3638056001 0.4753795682 0.4984512093
0.3638056001 0.4753795682 0.4984512093
0.3638056001 0.4753795682 0.4984512093
0.6866559854 0.7045700771 0.7078507668
0.7118638895 0.7118638895 0.7118638895
0.7118638895 0.7118638895 0.7118638895
0.7056687266 0.7110093843 0.7111467155
0.7056687266 0.7110093843 0.7111467155
0.7056839857 0.7110093843 0.7111467155
0.7057297627 0.7110093843 0.7111467155
0.7059281300 0.7110399023 0.7111772335
0.7066300450 0.7111467155 0.7112535286
0.7118638895 0.7118638895 0.7118638895
0.7118638895 0.7118638895 0.7118638895
