UffyLook Opensource/DCTLs & LUTs/3510_DWG_to_DWG.cube
TITLE "Fuji 3510 DWG"
# Fuji 3510 print stock profile adapted for DaVinci Wide Gamut Intermediate input + output. Created by Cullen Kelly Color on 4/26/23 
#  
#  
# 
LUT_3D_SIZE 8
0.0052643626 0.0019531548 0.0062867170
0.0947432670 0.0606546120 0.0494697490
0.2279545281 0.1098344396 0.0720225834
0.3094529641 0.1627679866 0.1234912642
0.3526054780 0.1561303120 0.1665522240
0.3678034638 0.1883421073 0.2387121386
0.3776150149 0.2167696651 0.2970016022
0.3830930037 0.2305790799 0.3258258946
0.0670634012 0.1146410315 0.0890058747
0.1111314565 0.1200274662 0.0905928130
0.2305485618 0.1469901579 0.0854047456
0.3082627604 0.1633783474 0.1246356909
0.3524528878 0.1558556497 0.1652704662
0.3677729458 0.1883115892 0.2383916991
0.3775997559 0.2167238880 0.2969100481
0.3830930037 0.2305790799 0.3258106355
0.1343709468 0.1944609751 0.1501487755
0.1276417182 0.1962615396 0.1456015869
0.2438696880 0.2315403983 0.1281300069
0.3471885252 0.2571145190 0.1750362402
0.3693751431 0.1743953613 0.1625848783
0.3676050965 0.1881895171 0.2370794232
0.3775387198 0.2165407797 0.2965743496
0.3830777447 0.2305333028 0.3257190814
0.2030670634 0.2838483253 0.2098573281
0.2106355383 0.2894178683 0.2083009079
0.2617990387 0.3194781415 0.1836575875
0.3875333791 0.3617303731 0.2334325170
0.4410315099 0.3704432746 0.2506446937
0.4239108873 0.2278629740 0.2561989776
0.3772793164 0.2158388647 0.2951857786
0.3830167086 0.2303959716 0.3254139010
0.2918745708 0.3682154574 0.2272678721
0.2993209735 0.3715114061 0.2280003052
0.3292439155 0.3832913710 0.2342717632
0.4108186465 0.4210116732 0.2739604791
0.4913099870 0.4629434653 0.3065232319
0.5324483101 0.4841077287 0.3177843900
0.4628519112 0.3170672160 0.3524223697
0.3827725643 0.2298466468 0.3241321431
0.4072327764 0.4308079652 0.2757152667
0.4088960098 0.4316014343 0.2764782177
0.4150301366 0.4350041962 0.2797741665
0.4359655146 0.4461127642 0.2906691081
0.4959639887 0.4816968032 0.3194323644
0.5402609293 0.5106126497 0.3374074922
0.5930724041 0.5563897154 0.3665674830
0.4856794079 0.3603418021 0.4027618830
0.4799267567 0.4770733196 0.3155107958
0.4802624552 0.4772564279 0.3156939040
0.4815136950 0.4779888609 0.3163500420
0.4863050278 0.4807965209 0.3188525216
0.5042343786 0.4924391547 0.3268940261
0.5470054170 0.5208514534 0.3439078355
0.5650568399 0.5329518578 0.3488212406
0.6073090715 0.5758297093 0.4137178607
0.5158312352 0.5018844892 0.3328450446
0.5159227893 0.5019302663 0.3328755627
0.5162432288 0.5021591516 0.3330128939
0.5174944686 0.5029831388 0.3335622187
0.5224231327 0.5062943465 0.3356374456
0.5390096895 0.5173723964 0.3418936446
0.5705958648 0.5398031586 0.3528038453
0.5740596628 0.5412527657 0.3526817731
0.0562752728 0.0632486458 0.1168230716
0.0996719310 0.0743266957 0.1020370794
0.2387121386 0.1000686656 0.0790722515
0.3099259937 0.1628290227 0.1234912642
0.3526665141 0.1562218662 0.1668574044
0.3678187228 0.1883573663 0.2387731746
0.3776150149 0.2167696651 0.2970168612
0.3830930037 0.2305790799 0.3258258946
0.0904097047 0.1346456092 0.1419546807
0.1224078737 0.1349202716 0.1318684672
0.2409246967 0.1438925765 0.0938429847
0.3087205310 0.1634699016 0.1246814679
0.3525139239 0.1559166857 0.1654993515
0.3677729458 0.1883115892 0.2383916991
0.3775997559 0.2166933700 0.2968642710
0.3830777447 0.2305485618 0.3257495995
0.1361104753 0.2010833906 0.1552452888
0.1258869306 0.1941405356 0.1434500649
0.2454261082 0.2301365682 0.1276722362
0.3471274891 0.2556649119 0.1745021744
0.3677424277 0.1725947967 0.1620660716
0.3676050965 0.1881895171 0.2370794232
0.3775387198 0.2165255207 0.2965133135
0.3830624857 0.2305180438 0.3256733043
0.2036163882 0.2836652171 0.2093995575
0.2104676890 0.2897993439 0.2072938125
0.2651865415 0.3199816892 0.1844357977
0.3878385595 0.3615014878 0.2334325170
0.4410925460 0.3702143893 0.2504463264
0.4246738384 0.2296025025 0.2565346761
0.3772793164 0.2158083467 0.2951400015
0.3830014496 0.2303807126 0.3253528649
0.2927290761 0.3685816739 0.2272831312
0.3007095445 0.3720759899 0.2280918593
0.3308613718 0.3837644007 0.2348363470
0.4115968566 0.4213626307 0.2744487678
0.4913557641 0.4629129473 0.3065079728
0.5324940871 0.4841535058 0.3178149081
0.4645761807 0.3201190204 0.3535210193
0.3827573053 0.2298161288 0.3240711070
0.4074311437 0.4308995193 0.2758068208
0.4095063706 0.4319066148 0.2767986572
0.4156557565 0.4353704128 0.2801251240
0.4364232853 0.4463263905 0.2908827344
0.4962691691 0.4818799115 0.3195696956
0.5402609293 0.5106126497 0.3374074922
0.5930571450 0.5563897154 0.3664301518
0.4881055924 0.3645380331 0.4041199359
0.4799725338 0.4770885786 0.3155260548
0.4806439307 0.4774700542 0.3158922713
0.4818951705 0.4782024872 0.3165484092
0.4866712444 0.4809948882 0.3190508888
0.5045090410 0.4926070039 0.3270160983
0.5470817121 0.5208972305 0.3439383536
0.5650415808 0.5329518578 0.3488212406
0.6072480354 0.5757839322 0.4134737163
0.5158464942 0.5018844892 0.3328450446
0.5162584878 0.5021744106 0.3330281529
0.5165941863 0.5023880369 0.3331654841
0.5178301671 0.5032120241 0.3337148089
0.5227893492 0.5065384909 0.3357900359
0.5391927977 0.5174944686 0.3419699397
0.5706416419 0.5398336767 0.3528191043
0.5740596628 0.5412527657 0.3526817731
0.1062485695 0.1544670787 0.2226901656
0.1182269017 0.1166094453 0.2419012741
0.2523079271 0.1368734264 0.2310978866
0.3354085603 0.1631494621 0.2050202182
0.3528801404 0.1565728237 0.1679560540
0.3678492409 0.1883726253 0.2390325780
0.3776302739 0.2168154421 0.2970778973
0.3830930037 0.2305943389 0.3258411536
0.1217212177 0.1759670405 0.2369573510
0.1273975738 0.1498588540 0.2599374380
0.2544747082 0.1361867704 0.2284428168
0.3350270848 0.1641412985 0.2021667811
0.3527275502 0.1562066072 0.1666132601
0.3678034638 0.1883421073 0.2386511025
0.3775997559 0.2167391470 0.2969253071
0.3830777447 0.2305638209 0.3257648585
0.1994811933 0.2701762417 0.2921492332
0.1926756695 0.2648508431 0.2843976501
0.2729228656 0.2788738842 0.2829327840
0.3850766766 0.2609140154 0.2229343099
0.3595178149 0.1625085832 0.1580682078
0.3676203555 0.1881895171 0.2370946822
0.3774929427 0.2164339666 0.2963454643
0.3830167086 0.2304264897 0.3254596780
0.2282139315 0.3113298238 0.2532387274
0.2284580758 0.3137407492 0.2469214923
0.2764934768 0.3367208362 0.2027313649
0.3877012284 0.3597161822 0.2327153429
0.4412603952 0.3692988479 0.2495918212
0.4272068360 0.2360112917 0.2579537652
0.3772335393 0.2157167926 0.2949416342
0.3829556725 0.2302891585 0.3251392386
0.2960250248 0.3699549859 0.2273746853
0.3041123064 0.3734493019 0.2282444495
0.3360952163 0.3855191882 0.2368047608
0.4144808118 0.4226749065 0.2762340734
0.4915083543 0.4628213931 0.3064469368
0.5326771954 0.4843366140 0.3179217212
0.4705577173 0.3308155947 0.3569542992
0.3827115282 0.2297093156 0.3238422217
0.4081940948 0.4312504768 0.2761577783
0.4102082856 0.4322575723 0.2771648737
0.4179751278 0.4366979477 0.2813916228
0.4381322957 0.4471046006 0.2916609445
0.4973525597 0.4825360494 0.3201037613
0.5402609293 0.5105973907 0.3373922332
0.5930266270 0.5564049744 0.3659571221
0.4969710842 0.3792629892 0.4088654917
0.4801098650 0.4771648737 0.3156176089
0.4807812619 0.4775616083 0.3159685664
0.4833142596 0.4790264744 0.3172961013
0.4880445563 0.4818036164 0.3197528038
0.5055466545 0.4932784009 0.3274738689
0.5473411154 0.5210803388 0.3440299077
0.5650263218 0.5329365988 0.3488059815
0.6070649271 0.5755855650 0.4124971389
0.5158770123 0.5019150072 0.3328603037
0.5163042649 0.5021896696 0.3330434119
0.5178912032 0.5032578012 0.3337300679
0.5191271839 0.5040970474 0.3342641337
0.5241931792 0.5074692912 0.3363546197
0.5399252308 0.5179827573 0.3421988251
0.5707942321 0.5399710079 0.3528953994
0.5740596628 0.5412375067 0.3526817731
0.1517357137 0.2103913939 0.2847638666
0.1577019913 0.1920805676 0.3238422217
0.2366826886 0.1928892958 0.3353170062
0.3553978790 0.2285801480 0.3358052949
0.3753109026 0.2193789578 0.3057755398
0.3679713130 0.1884794385 0.2399938964
0.3776913100 0.2169527733 0.2973525597
0.3831082628 0.2306248569 0.3259021897
0.1498741131 0.2060120546 0.2921339742
0.1621728847 0.1880979629 0.3261463340
0.2424658579 0.1936675059 0.3351186389
0.3557030594 0.2285191119 0.3353475242
0.3752651255 0.2191653315 0.3053330282
0.3679255360 0.1884336614 0.2396276799
0.3776607919 0.2168764782 0.2971999695
0.3830930037 0.2305790799 0.3258258946
0.1970092317 0.2659189746 0.3299000534
0.1969329366 0.2651560235 0.3346913863
0.2634927901 0.2516365301 0.3857633326
0.3557183185 0.2277714199 0.3334859236
0.3748226139 0.2179140917 0.3029831388
0.3677424277 0.1882963302 0.2381475547
0.3775539788 0.2165712978 0.2966201266
0.3830319677 0.2304570077 0.3255207141
0.3044022278 0.3973907073 0.4192263676
0.3041886015 0.3969024186 0.4181429770
0.3190814069 0.4147554742 0.4332036316
0.4455634394 0.4461127642 0.4475623713
0.4949874113 0.3997711147 0.3783169299
0.4356603342 0.2582589456 0.2626077668
0.3770962081 0.2153200580 0.2941634241
0.3827878233 0.2299076829 0.3242847333
0.3198443580 0.4210116732 0.3764858473
0.3224536507 0.4245517662 0.3757381552
0.3360189212 0.4380102235 0.3684596017
0.4511329824 0.4750591287 0.3423971923
0.4908522164 0.4615548943 0.3056382086
0.5334096284 0.4850537881 0.3183642329
0.4901197833 0.3660944533 0.3640650034
0.3825284199 0.2293125811 0.3229114214
0.4110017548 0.4326695659 0.2775921263
0.4130922408 0.4338597696 0.2787365530
0.4207827878 0.4383154040 0.2829327840
0.4445868620 0.4504310674 0.2945296407
0.5012893874 0.4851300832 0.3220416571
0.5402151522 0.5105363546 0.3373922332
0.5928892958 0.5563897154 0.3641107805
0.5243762875 0.4238345922 0.4183108263
0.4806744488 0.4774700542 0.3159075303
0.4813458457 0.4778667887 0.3162584878
0.4838635843 0.4793163958 0.3175860227
0.4934462501 0.4852674144 0.3221942473
0.5094529641 0.4957808804 0.3292133974
0.5482871748 0.5217517357 0.3443656062
0.5649805447 0.5329060807 0.3487907225
0.6062714580 0.5747615778 0.4086366064
0.5160143435 0.5020065614 0.3329213397
0.5164415961 0.5022812238 0.3331044480
0.5180285344 0.5033493553 0.3337911040
0.5243762875 0.5075913634 0.3364156558
0.5295338369 0.5110246433 0.3384603647
0.5426718547 0.5198138399 0.3431143664
0.5713893339 0.5404592966 0.3531395438
0.5740444038 0.5412375067 0.3526665141
0.1954070344 0.2139162280 0.3682917525
0.2063324941 0.2145571069 0.3714808881
0.2518654154 0.2221866178 0.3773098344
0.3469443809 0.2519417105 0.3826504921
0.3951018540 0.2681925689 0.3917448692
0.3939421683 0.2564278630 0.3701075761
0.3778744182 0.2174563210 0.2983596551
0.3831540398 0.2307316701 0.3261615930
0.1979858091 0.2141145953 0.3692378119
0.2100251774 0.2151064317 0.3724269474
0.2550240330 0.2226138705 0.3773556115
0.3482719158 0.2529488060 0.3828336004
0.3951171130 0.2681773098 0.3917143511
0.3939421683 0.2564431220 0.3701380941
0.3778439002 0.2173952850 0.2982070649
0.3831387808 0.2307011521 0.3260700389
0.2074769207 0.2145876249 0.3716029603
0.2207827878 0.2167238880 0.3743648432
0.2667277028 0.2252384222 0.3789578088
0.3538261997 0.2577096208 0.3839017319
0.3951323720 0.2681010147 0.3916533150
0.3939574273 0.2564736400 0.3702143893
0.3777370871 0.2171053635 0.2976577401
0.3830777447 0.2305638209 0.3257648585
0.2667582208 0.3507438773 0.4106355383
0.2695658808 0.3541771572 0.4177004654
0.2853131914 0.3673151751 0.4509956512
0.4093232624 0.3639887083 0.4874189364
0.3948119326 0.2672770275 0.3907072557
0.3939726864 0.2564888991 0.3702296483
0.3778439002 0.2173800259 0.2982070649
0.3828488594 0.2300297551 0.3245441367
0.3583581292 0.4677042802 0.4873273823
0.3607843137 0.4709697108 0.4904707408
0.3705043107 0.4853284504 0.5038986801
0.4219729915 0.5515983825 0.5658045319
0.5898527504 0.5923399710 0.5865720607
0.6084840162 0.5588311589 0.5337300679
0.5440756847 0.4597695888 0.4333867399
0.4756847486 0.3433890288 0.3975280385
0.4155489433 0.5264209964 0.5034561685
0.4178377966 0.5277943084 0.5040970474
0.4270847639 0.5329518578 0.5063553826
0.4684672313 0.5512321660 0.5128404669
0.5810788128 0.5930724041 0.5211718929
0.6019378958 0.5723659113 0.3900511177
0.6017395285 0.5682764935 0.3967956054
0.5830930037 0.5269398032 0.4442969406
0.4828107118 0.4786449989 0.3170519570
0.4834821088 0.4790417334 0.3173876555
0.4859693294 0.4804913405 0.3186999313
0.4956435492 0.4866865034 0.3231250477
0.5244525826 0.5054551003 0.3349507897
0.5524986648 0.5245441367 0.3454642557
0.5648126955 0.5327534905 0.3487144274
0.6013733120 0.5691767758 0.3862821393
0.5165636683 0.5023727779 0.3331654841
0.5169756619 0.5026474403 0.3333333333
0.5185626001 0.5037155718 0.3340199893
0.5249561303 0.5079728389 0.3366598001
0.5424277104 0.5196612497 0.3430380713
0.5546196689 0.5287403677 0.3477531090
0.5734035248 0.5421072709 0.3539330129
0.5739986267 0.5411917296 0.3526512551
0.2939955749 0.2539711604 0.4192721447
0.3002822919 0.2555275807 0.4204623484
0.3222095064 0.2610971237 0.4245059892
0.3701533532 0.2724040589 0.4288090333
0.4118104829 0.2873579004 0.4263981079
0.4155184253 0.2894941634 0.4212100404
0.4016632334 0.2730907149 0.3964599069
0.3833371481 0.2311436637 0.3270923934
0.2954757000 0.2543373770 0.4195468070
0.3034256504 0.2562905318 0.4210116732
0.3246051728 0.2616769665 0.4248569467
0.3711299306 0.2726329442 0.4288242924
0.4119172961 0.2874341955 0.4263981079
0.4154879072 0.2894789044 0.4211947814
0.4016937514 0.2731212329 0.3965209430
0.3833218891 0.2310978866 0.3270008392
0.3009384298 0.2556954299 0.4205844205
0.3087815671 0.2575722896 0.4218966964
0.3334096284 0.2637216754 0.4258945602
0.3747005417 0.2734721904 0.4289005875
0.4122987716 0.2877393759 0.4263981079
0.4154268711 0.2894331273 0.4211032273
0.4017853056 0.2732890822 0.3967650874
0.3832608530 0.2309758145 0.3267109178
0.3205767910 0.2606546120 0.4241702907
0.3266498817 0.2621347372 0.4250858320
0.3460288396 0.2664225223 0.4267185473
0.3868314641 0.2764934768 0.4292057679
0.4134584573 0.2885938811 0.4259250782
0.4151522087 0.2892500191 0.4207522698
0.4021210040 0.2738231479 0.3976195926
0.3838101778 0.2322270542 0.3295338369
0.3464713512 0.4581216144 0.5045548180
0.3488517586 0.4623178454 0.5109178302
0.3595330739 0.4761577783 0.5315327687
0.4207980468 0.4955062181 0.5611047532
0.5412222477 0.4959029526 0.5838712139
0.4142061494 0.2885938811 0.4195773251
0.4032196536 0.2755474174 0.4003814755
0.3892118715 0.2453192950 0.3526359960
0.3949797818 0.5262073701 0.5440146487
0.3962157626 0.5285420005 0.5462882429
0.4015106432 0.5374990463 0.5550469215
0.4230106050 0.5696040284 0.5857328145
0.5572594797 0.6418097200 0.6508125429
0.6753337911 0.6766613260 0.6723582818
0.6883344778 0.6743877317 0.6614023041
0.6766613260 0.6556801709 0.6337071794
0.5156023499 0.6036621653 0.5961394675
0.5166247044 0.6042114900 0.5967040513
0.5205767910 0.6063935302 0.5990844587
0.5357900359 0.6150148775 0.6075837339
0.5827115282 0.6415350576 0.6314641032
0.6713664454 0.6820935378 0.6638284886
0.6862439918 0.6759746700 0.6353093767
0.6843823911 0.6723125048 0.6344243534
0.5186388952 0.5037613489 0.3340505074
0.5190508888 0.5040512703 0.3342336156
0.5206225681 0.5051041428 0.3349050126
0.5271992065 0.5094529641 0.3375448234
0.5430991073 0.5201495384 0.3432822156
0.6594491493 0.6518501564 0.5895780880
0.6568093385 0.6392614633 0.5456931411
0.5735866331 0.5407949950 0.3524528878
0.3655909056 0.2720073243 0.4299382010
0.3669794766 0.2724040589 0.4301518273
0.3710536355 0.2733806363 0.4303349355
0.3838864729 0.2764629587 0.4306248569
0.4053253986 0.2813000687 0.4290226596
0.4331883726 0.2962233921 0.4448157473
0.4394903487 0.3010299840 0.4520790417
0.4059357595 0.2797436484 0.4060883497
0.3659113451 0.2720988785 0.4299992370
0.3685969329 0.2728160525 0.4302891585
0.3723811704 0.2736858167 0.4303501946
0.3849240864 0.2767376211 0.4306553750
0.4055695430 0.2813611048 0.4290074006
0.4332646677 0.2962539101 0.4448767834
0.4394903487 0.3010299840 0.4520790417
0.4059662776 0.2797894255 0.4061646448
0.3671320668 0.2724498360 0.4301670863
0.3694972152 0.2730144198 0.4303044175
0.3771114672 0.2747997253 0.4304570077
0.3886930648 0.2776989395 0.4307621881
0.4065461204 0.2816205081 0.4289616236
0.4335545892 0.2964370184 0.4450751507
0.4394903487 0.3010299840 0.4520790417
0.4061036088 0.2799572747 0.4064087892
0.3707484550 0.2733043412 0.4303196765
0.3728084230 0.2737773709 0.4303654536
0.3800106813 0.2755016403 0.4305180438
0.3967040513 0.2795757992 0.4303807126
0.4105745022 0.2827496757 0.4288853285
0.4345159075 0.2971847105 0.4462348363
0.4394903487 0.3010299840 0.4520790417
0.4066071565 0.2805981537 0.4073243305
0.3823605707 0.2760814832 0.4305790799
0.3840238041 0.2764934768 0.4306248569
0.3893797208 0.2778667887 0.4307316701
0.4016327153 0.2804150454 0.4293278401
0.4223544671 0.2895857176 0.4366979477
0.4382543679 0.3001449607 0.4508125429
0.4394903487 0.3010299840 0.4520790417
0.4082398718 0.2826581216 0.4102845808
0.4155184253 0.5527275502 0.5857785916
0.4180514229 0.5537956817 0.5868162051
0.4280308232 0.5576562142 0.5907225147
0.4710002289 0.5724422065 0.6055390249
0.5547875181 0.6062256809 0.6397650111
0.6652323186 0.6594644083 0.6820325017
0.6569771878 0.6211032273 0.6638284886
0.6710917830 0.6443884947 0.6651560235
0.4361638819 0.5903257801 0.6062714580
0.4373693446 0.5910734722 0.6069123369
0.4422369726 0.5938963912 0.6093842985
0.4574502174 0.6048065919 0.6193331807
0.5286793317 0.6374914168 0.6488288701
0.6602578775 0.6892500191 0.6932478828
0.7017166400 0.7015640497 0.7000686656
0.7036850538 0.7022659648 0.7010147250
0.5595941100 0.6338597696 0.6313572900
0.5602197299 0.6342717632 0.6317692836
0.5626001373 0.6358434424 0.6332951858
0.5717555505 0.6417334249 0.6389715419
0.6006866560 0.6575570306 0.6564431220
0.6669108110 0.6890516518 0.6855420768
0.7013504234 0.7037003128 0.7005569543
0.7045243000 0.7042191196 0.7012588693
0.3992828260 0.2802777142 0.4304112306
0.3994354162 0.2802929732 0.4303807126
0.3999847410 0.2803997864 0.4302586404
0.4020904860 0.2807660029 0.4298161288
0.4064393072 0.2818188754 0.4294651713
0.4213626307 0.2890821698 0.4361791409
0.4394903487 0.3010299840 0.4520790417
0.4394903487 0.3010299840 0.4520790417
0.3993133440 0.2802777142 0.4303959716
0.4001068132 0.2804150454 0.4302281224
0.4006561379 0.2805065995 0.4301213092
0.4026398108 0.2808728161 0.4297093156
0.4068207828 0.2819256886 0.4294651713
0.4215609979 0.2891737240 0.4362859541
0.4394903487 0.3010299840 0.4520790417
0.4394903487 0.3010299840 0.4520790417
0.3994354162 0.2802929732 0.4303807126
0.4002288853 0.2804303044 0.4302128634
0.4028534371 0.2809185931 0.4296940566
0.4039673457 0.2811932555 0.4296330205
0.4082703899 0.2823224231 0.4294346532
0.4222781720 0.2895551995 0.4366521706
0.4394903487 0.3010299840 0.4520790417
0.4394903487 0.3010299840 0.4520790417
0.3999237049 0.2803845274 0.4302738994
0.4007019150 0.2805218585 0.4301060502
0.4030975814 0.2809796292 0.4296787976
0.4090180819 0.2825360494 0.4294193942
0.4126497292 0.2837567712 0.4298008698
0.4249027237 0.2909132525 0.4380254826
0.4394903487 0.3010299840 0.4520790417
0.4394903487 0.3010299840 0.4520790417
0.4017547875 0.2807049668 0.4298924239
0.4024872206 0.2808270390 0.4297245747
0.4040588998 0.2812237736 0.4296177615
0.4100099184 0.2828107118 0.4294041352
0.4255893797 0.2913099870 0.4384527352
0.4314793622 0.2952162966 0.4436560616
0.4394903487 0.3010299840 0.4520790417
0.4394903487 0.3010299840 0.4520790417
0.4057526513 0.2816510262 0.4295109483
0.4061188678 0.2817425803 0.4294956893
0.4077515831 0.2821698329 0.4294499123
0.4128786145 0.2838635843 0.4298924239
0.4267643244 0.2919966430 0.4392614633
0.6206301976 0.5728542000 0.6378576333
0.5858701457 0.5123064012 0.6023346304
0.4394903487 0.3010299840 0.4520790417
0.4951552605 0.6003814755 0.6236667430
0.4967116808 0.6011139086 0.6243686580
0.5025406271 0.6038605325 0.6269932097
0.5238422217 0.6137026017 0.6362401770
0.5788052186 0.6415350576 0.6584115358
0.6698710613 0.6842755779 0.6929274434
0.7003585870 0.7011978332 0.7038376440
0.7043106737 0.7032425422 0.7046311131
0.4818036164 0.6157778286 0.6295414664
0.4829022660 0.6162813764 0.6300450141
0.4870832380 0.6181887541 0.6319523919
0.5007248035 0.6243839170 0.6376287480
0.5430075532 0.6442969406 0.6545967803
0.6442816815 0.6867627985 0.6907148852
0.6989852750 0.7042648966 0.7044022278
0.7051194018 0.7051194018 0.7051194018
