UffyLook Opensource/DCTLs & LUTs/3510_DWG_to_DWG.cube
TITLE "Fuji 3510 DWG"
# Fuji 3510 print stock profile adapted for DaVinci Wide Gamut Intermediate input + output. Created by Cullen Kelly Color on 4/26/23 
#  
#  
# 
LUT_3D_SIZE 4
0.0052643626 0.0019531548 0.0062867170
0.2610360876 0.1327840085 0.0905470359
0.3650110628 0.1851529717 0.2163424125
0.3830930037 0.2305790799 0.3258258946
0.1580529488 0.2242923629 0.1704432746
0.2959487297 0.2755779355 0.1639581903
0.3641718166 0.1820401312 0.2115815976
0.3830624857 0.2305180438 0.3256580453
0.3748378729 0.4126649882 0.2594796674
0.3959868772 0.4231479362 0.2700846876
0.5280689708 0.4993362325 0.3311818112
0.3822232395 0.2286106661 0.3212634470
0.5158312352 0.5018844892 0.3328450446
0.5164873732 0.5023117418 0.3331197070
0.5327534905 0.5131761654 0.3397116045
0.5740596628 0.5412527657 0.3526817731
0.1271534295 0.1777218280 0.2444647898
0.2954146639 0.1694361791 0.2711223011
0.3651331350 0.1855039292 0.2171816587
0.3830930037 0.2305943389 0.3258564126
0.2384985122 0.3184405280 0.3417563134
0.3326466773 0.3348744945 0.3393759060
0.3642481117 0.1823147936 0.2119935912
0.3829709316 0.2303196765 0.3252307927
0.3777218280 0.4140535592 0.2608072023
0.4010528725 0.4256656748 0.2731517510
0.5280994888 0.4992751965 0.3311207752
0.3821164263 0.2283665217 0.3206988632
0.5159075303 0.5019302663 0.3328755627
0.5191271839 0.5040970474 0.3342641337
0.5351491569 0.5147936217 0.3405966278
0.5740596628 0.5412375067 0.3526817731
0.2623331044 0.2461585412 0.4124055848
0.3162737469 0.2550698100 0.4156862745
0.4095979248 0.2843366140 0.4127260243
0.3832455940 0.2309452964 0.3266346227
0.2780041199 0.2484626535 0.4135347524
0.3309376669 0.2571602960 0.4149843595
0.4094911116 0.2841992828 0.4125276570
0.3831235218 0.2306706340 0.3260242618
0.3825436790 0.5053940642 0.5237506676
0.3971770809 0.5273365377 0.5448844129
0.6546730755 0.6566414893 0.6510414282
0.6356908522 0.5942473487 0.5592584115
0.5176317998 0.5030746929 0.3336232547
0.5208209354 0.5052414740 0.3349965667
0.5619897765 0.5338216220 0.3504234379
0.5739070726 0.5411001755 0.3526054780
0.3992828260 0.2802777142 0.4304112306
0.4004119936 0.2804608225 0.4301670863
0.4137941558 0.2842755779 0.4302281224
0.4394903487 0.3010299840 0.4520790417
0.3995422293 0.2803082322 0.4303501946
0.4040741588 0.2812237736 0.4296177615
0.4145113298 0.2845960174 0.4304417487
0.4394903487 0.3010299840 0.4520790417
0.4040283818 0.2812085145 0.4296177615
0.4070191501 0.2819714656 0.4294651713
0.4365758755 0.2989547570 0.4490730144
0.4394903487 0.3010299840 0.4520790417
0.4818036164 0.6157778286 0.6295414664
0.4903181506 0.6196536202 0.6334019989
0.6035248341 0.6716105898 0.6781719692
0.7051194018 0.7051194018 0.7051194018
