UffyLook Opensource/DCTLs & LUTs/3510_DWG_to_DWG.cube
TITLE "Fuji 3510 DWG"
# Fuji 3510 print stock profile adapted for DaVinci Wide Gamut Intermediate input + output. Created by Cullen Kelly Color on 4/26/23 
#  
#  
# 
LUT_3D_SIZE 64
0.0052643626 0.0019531548 0.0062867170
0.0322575723 0.0169527733 0.0215915160
0.0352025635 0.0199893187 0.0219577325
0.0402990768 0.0250247959 0.0257572290
0.0465552758 0.0301518273 0.0312352178
0.0542305638 0.0343327993 0.0318760967
0.0605630579 0.0382696269 0.0329137102
0.0653543908 0.0426489662 0.0341191730
0.0807507439 0.0482948043 0.0426947433
0.0947432670 0.0606546120 0.0494697490
0.1070115206 0.0680094606 0.0529182879
0.1232318608 0.0744945449 0.0569314107
0.1398336767 0.0811779965 0.0613717861
0.1561303120 0.0848706798 0.0595254444
0.1720912490 0.0892042420 0.0543526360
0.1876859693 0.0951705196 0.0553292134
0.2013885710 0.0998397803 0.0606698711
0.2157167926 0.1042038605 0.0663614862
0.2279545281 0.1098344396 0.0720225834
0.2404974441 0.1183794919 0.0788433661
0.2515144579 0.1251087205 0.0847638666
0.2610360876 0.1327840085 0.0905470359
0.2704051270 0.1414816510 0.0966964218
0.2788128481 0.1483939879 0.1040665293
0.2869001297 0.1527580682 0.1114518959
0.2956893263 0.1573052567 0.1175707637
0.3027237354 0.1600366217 0.1203936828
0.3094529641 0.1627679866 0.1234912642
0.3160143435 0.1654535744 0.1258564126
0.3207598993 0.1668879225 0.1256275273
0.3259937438 0.1664148928 0.1268329900
0.3313496605 0.1644007019 0.1308613718
0.3371480888 0.1609826810 0.1365224689
0.3418020905 0.1556725414 0.1403067063
0.3463187610 0.1509117266 0.1455710689
0.3494773785 0.1531395438 0.1561608301
0.3526054780 0.1561303120 0.1665522240
0.3556572824 0.1597161822 0.1758602274
0.3584496834 0.1631494621 0.1845426108
0.3608148318 0.1692225528 0.1926604105
0.3622186618 0.1745479515 0.2003509575
0.3635767147 0.1797512779 0.2081177996
0.3650110628 0.1851529717 0.2163424125
0.3659876402 0.1864805066 0.2240177005
0.3669336995 0.1876707103 0.2314946212
0.3678034638 0.1883421073 0.2387121386
0.3686732280 0.1890897993 0.2456855116
0.3698481727 0.1924773022 0.2532387274
0.3710841535 0.1964751659 0.2606851301
0.3723048753 0.2005645838 0.2677653162
0.3735255970 0.2046845197 0.2744640269
0.3747005417 0.2085908293 0.2807660029
0.3757381552 0.2115205615 0.2865949493
0.3766994736 0.2142214084 0.2919966430
0.3776150149 0.2167696651 0.2970016022
0.3784847791 0.2191348135 0.3016098268
0.3792782483 0.2213473716 0.3058365759
0.3800259403 0.2233768215 0.3096818494
0.3807125963 0.2252231632 0.3131761654
0.3812924392 0.2265049210 0.3162890059
0.3818112459 0.2276798657 0.3190814069
0.3822842756 0.2287479973 0.3215991455
0.3827115282 0.2297093156 0.3238269627
0.3830930037 0.2305790799 0.3258258946
0.0486915389 0.0556343938 0.0442664225
0.0531471733 0.0547493706 0.0437170977
0.0543984131 0.0537422751 0.0431219959
0.0567330434 0.0554512856 0.0452124819
0.0609903105 0.0579079881 0.0475623713
0.0658121614 0.0583352407 0.0485847257
0.0714274815 0.0601663233 0.0505683986
0.0789654383 0.0635080491 0.0525978485
0.0886396582 0.0671549554 0.0545510033
0.0968947890 0.0690775921 0.0551918822
0.1070115206 0.0680094606 0.0529182879
0.1231403067 0.0744640269 0.0569161517
0.1397421225 0.0811627375 0.0613412680
0.1560540169 0.0848401617 0.0594033722
0.1720149538 0.0891889830 0.0543221180
0.1876249332 0.0951552605 0.0552986954
0.2012970169 0.0998092622 0.0606240940
0.2156099794 0.1040817884 0.0662851911
0.2279087510 0.1098039216 0.0719920653
0.2404669261 0.1183489738 0.0788281071
0.2514686809 0.1250782025 0.0847333486
0.2609903105 0.1327840085 0.0905317769
0.2703746090 0.1414663920 0.0966811627
0.2787212940 0.1484245060 0.1041123064
0.2868085756 0.1528191043 0.1115129320
0.2956130312 0.1573815518 0.1176165408
0.3026474403 0.1600976577 0.1204394598
0.3093614099 0.1628137636 0.1235828183
0.3159380484 0.1654840925 0.1259327077
0.3207141222 0.1669031815 0.1257038224
0.3259479667 0.1665217060 0.1268177310
0.3313038834 0.1644922560 0.1308461128
0.3371023117 0.1611047532 0.1364766918
0.3417715724 0.1557793545 0.1402609293
0.3463035019 0.1509117266 0.1454489967
0.3494621195 0.1531242847 0.1560540169
0.3525902190 0.1560997940 0.1664606699
0.3556420233 0.1597009232 0.1757839322
0.3584496834 0.1631036851 0.1844815747
0.3607995727 0.1691920348 0.1925993744
0.3622186618 0.1745174334 0.2003051804
0.3635614557 0.1797360189 0.2080872816
0.3649958038 0.1851377127 0.2163118944
0.3659723812 0.1864805066 0.2239871824
0.3669336995 0.1876554513 0.2314641032
0.3678034638 0.1883421073 0.2386816205
0.3686732280 0.1890897993 0.2456549935
0.3698481727 0.1924773022 0.2532234684
0.3710841535 0.1964751659 0.2606698711
0.3723048753 0.2005493248 0.2677500572
0.3735255970 0.2046845197 0.2744487678
0.3747005417 0.2085908293 0.2807660029
0.3757381552 0.2115205615 0.2865796902
0.3766994736 0.2142214084 0.2919813840
0.3776150149 0.2167696651 0.2969863432
0.3784847791 0.2191348135 0.3016098268
0.3792782483 0.2213321126 0.3058213169
0.3800259403 0.2233768215 0.3096818494
0.3807125963 0.2252231632 0.3131609064
0.3812924392 0.2265049210 0.3162890059
0.3818112459 0.2276798657 0.3190814069
0.3822842756 0.2287479973 0.3215991455
0.3827115282 0.2297093156 0.3238269627
0.3830930037 0.2305790799 0.3258258946
0.0520637827 0.0609750515 0.0483100633
0.0552529183 0.0603952087 0.0479591058
0.0568093385 0.0598458839 0.0475776303
0.0592965591 0.0600747692 0.0474402991
0.0617837797 0.0600289921 0.0471503777
0.0652170596 0.0608224613 0.0494850080
0.0715800717 0.0651712825 0.0521858549
0.0804913405 0.0690623331 0.0560769055
0.0889906157 0.0719157702 0.0582131685
0.0983596551 0.0764629587 0.0607156481
0.1089494163 0.0797131304 0.0624093996
0.1233997101 0.0856031128 0.0644541085
0.1378957809 0.0901197833 0.0660410468
0.1530785077 0.0925154498 0.0638437476
0.1719386587 0.0891584649 0.0542915999
0.1875638972 0.0951247425 0.0552834363
0.2011902037 0.0997787442 0.0605935760
0.2154726482 0.1039597162 0.0662088960
0.2278629740 0.1097886625 0.0719768063
0.2404211490 0.1183489738 0.0788128481
0.2514229038 0.1250629435 0.0847180896
0.2609597925 0.1327687495 0.0905165179
0.2703440909 0.1414663920 0.0966659037
0.2786449989 0.1483482109 0.1040665293
0.2867170214 0.1528801404 0.1115739681
0.2955367361 0.1574425879 0.1176470588
0.3025711452 0.1601586938 0.1204699779
0.3092851148 0.1628595407 0.1236743725
0.3158617533 0.1655298695 0.1259937438
0.3206683452 0.1669336995 0.1257648585
0.3259021897 0.1666285191 0.1268024720
0.3312581064 0.1645838102 0.1308461128
0.3370565347 0.1612268254 0.1364309148
0.3417257954 0.1558861677 0.1402304112
0.3462882429 0.1508964675 0.1453421836
0.3494621195 0.1531090257 0.1559624628
0.3525749599 0.1560845350 0.1663691157
0.3556115053 0.1596704051 0.1757076371
0.3584344244 0.1630884260 0.1844205386
0.3607995727 0.1691462577 0.1925535973
0.3622034028 0.1744869154 0.2002594034
0.3635614557 0.1797055009 0.2080415045
0.3649958038 0.1851071946 0.2162661173
0.3659723812 0.1864652476 0.2239566644
0.3669184405 0.1876554513 0.2314488441
0.3678034638 0.1883421073 0.2386663615
0.3686732280 0.1890897993 0.2456397345
0.3698481727 0.1924620432 0.2532082094
0.3710688945 0.1964599069 0.2606546120
0.3723048753 0.2005340658 0.2677347982
0.3735255970 0.2046692607 0.2744487678
0.3747005417 0.2085755703 0.2807507439
0.3757381552 0.2115205615 0.2865644312
0.3766994736 0.2142214084 0.2919813840
0.3776150149 0.2167544060 0.2969863432
0.3784847791 0.2191348135 0.3015945678
0.3792782483 0.2213321126 0.3058213169
0.3800259403 0.2233768215 0.3096665904
0.3807125963 0.2252079042 0.3131609064
0.3812924392 0.2265049210 0.3162890059
0.3818112459 0.2276798657 0.3190814069
0.3822842756 0.2287479973 0.3215991455
0.3827115282 0.2297093156 0.3238269627
0.3830930037 0.2305790799 0.3258258946
0.0557717250 0.0679789425 0.0530098421
0.0579385061 0.0671396963 0.0525978485
0.0593118181 0.0662851911 0.0521400778
0.0606698711 0.0653391318 0.0516365301
0.0655832761 0.0673838407 0.0521400778
0.0692149233 0.0677653162 0.0535896849
0.0729991608 0.0683909361 0.0562294957
0.0803387503 0.0717479210 0.0577706569
0.0896314946 0.0763866636 0.0610818647
0.0988937209 0.0802014191 0.0635690852
0.1098039216 0.0838788434 0.0649576562
0.1229114214 0.0882734417 0.0669108110
0.1385366598 0.0936598764 0.0684214542
0.1535362783 0.0978561074 0.0685587854
0.1687037461 0.1010452430 0.0666666667
0.1839627680 0.1047531853 0.0652475776
0.1979705501 0.1049057755 0.0631265736
0.2153200580 0.1037918669 0.0661173419
0.2278171969 0.1097734035 0.0719615473
0.2403906310 0.1183184558 0.0787975891
0.2513771267 0.1250476844 0.0846875715
0.2609140154 0.1327534905 0.0905012589
0.2702983139 0.1414511330 0.0966506447
0.2785687037 0.1482719158 0.1040054932
0.2866102083 0.1529564355 0.1116502632
0.2954757000 0.1575188830 0.1176928359
0.3024948501 0.1602349889 0.1205004959
0.3091935607 0.1629205768 0.1237659266
0.3157854582 0.1655756466 0.1260852979
0.3206073091 0.1669642176 0.1258411536
0.3258411536 0.1667505913 0.1267872129
0.3312123293 0.1647058824 0.1308308537
0.3370107576 0.1613641566 0.1363698787
0.3416952773 0.1560234989 0.1401846342
0.3462729839 0.1508964675 0.1452201114
0.3494468605 0.1530937667 0.1558403906
0.3525749599 0.1560540169 0.1662775616
0.3555962463 0.1596398871 0.1756313420
0.3584191653 0.1630579080 0.1843442435
0.3607843137 0.1691157397 0.1924925612
0.3622034028 0.1744563973 0.2002136263
0.3635461967 0.1796749828 0.2079957275
0.3649805447 0.1850766766 0.2162355993
0.3659723812 0.1864652476 0.2239261463
0.3669184405 0.1876554513 0.2314183261
0.3678034638 0.1883421073 0.2386358434
0.3686732280 0.1890745403 0.2456244755
0.3698329137 0.1924467842 0.2531776913
0.3710688945 0.1964599069 0.2606240940
0.3723048753 0.2005340658 0.2677195392
0.3735255970 0.2046692607 0.2744335088
0.3747005417 0.2085755703 0.2807354849
0.3757228962 0.2115053025 0.2865644312
0.3766994736 0.2142214084 0.2919661250
0.3776150149 0.2167544060 0.2969710842
0.3784847791 0.2191348135 0.3015945678
0.3792782483 0.2213321126 0.3058213169
0.3800259403 0.2233615625 0.3096665904
0.3807125963 0.2252079042 0.3131609064
0.3812924392 0.2265049210 0.3162737469
0.3818112459 0.2276798657 0.3190814069
0.3822842756 0.2287479973 0.3215838865
0.3827115282 0.2297093156 0.3238269627
0.3830930037 0.2305790799 0.3258258946
0.0595712215 0.0753185321 0.0576638437
0.0611734188 0.0747081712 0.0573434043
0.0625314717 0.0740062562 0.0569771878
0.0638895247 0.0732127871 0.0565499351
0.0681010147 0.0747997253 0.0589761196
0.0723277638 0.0758983749 0.0591744869
0.0756847486 0.0752574960 0.0602578775
0.0830701152 0.0771343557 0.0615243763
0.0891584649 0.0790264744 0.0622110323
0.0992294194 0.0842145418 0.0663462272
0.1095445182 0.0888838025 0.0685587854
0.1235370413 0.0928511482 0.0706492714
0.1382162203 0.0969405661 0.0713206683
0.1538261997 0.1015487907 0.0720225834
0.1688410773 0.1046005951 0.0696879530
0.1842069123 0.1082627604 0.0679484245
0.1986114290 0.1117265583 0.0667887388
0.2120851453 0.1144579232 0.0688792248
0.2249332418 0.1177996490 0.0735179675
0.2403295949 0.1183031968 0.0787670710
0.2513160906 0.1250324254 0.0846570535
0.2608682383 0.1327229725 0.0904707408
0.2702677958 0.1414358740 0.0966353857
0.2784771496 0.1481803616 0.1039444572
0.2865186542 0.1530479896 0.1117112993
0.2953994049 0.1575799191 0.1177233539
0.3023880369 0.1603265431 0.1205462730
0.3090714885 0.1629816129 0.1238879988
0.3156786450 0.1656214237 0.1261768521
0.3205462730 0.1669794766 0.1259327077
0.3257801175 0.1669031815 0.1267719539
0.3311665522 0.1648279545 0.1308155947
0.3369497215 0.1615320058 0.1363088426
0.3416342412 0.1561608301 0.1401235981
0.3462577249 0.1508964675 0.1450675212
0.3494316014 0.1530632486 0.1557183185
0.3525597009 0.1560234989 0.1661554894
0.3555809873 0.1596093690 0.1755245289
0.3584039063 0.1630273899 0.1842526894
0.3607690547 0.1690699626 0.1924315251
0.3621881437 0.1744106203 0.2001525902
0.3635309377 0.1796292058 0.2079346914
0.3649805447 0.1850461585 0.2161898222
0.3659723812 0.1864652476 0.2238803693
0.3669184405 0.1876401923 0.2313878080
0.3678034638 0.1883421073 0.2386205844
0.3686732280 0.1890745403 0.2455939574
0.3698329137 0.1924467842 0.2531624323
0.3710688945 0.1964446479 0.2606088350
0.3723048753 0.2005188067 0.2677042802
0.3735255970 0.2046540017 0.2744182498
0.3747005417 0.2085603113 0.2807202258
0.3757228962 0.2115053025 0.2865491722
0.3766994736 0.2142061494 0.2919661250
0.3776150149 0.2167544060 0.2969710842
0.3784695201 0.2191348135 0.3015793088
0.3792782483 0.2213321126 0.3058060578
0.3800259403 0.2233615625 0.3096665904
0.3807125963 0.2252079042 0.3131609064
0.3812924392 0.2265049210 0.3162737469
0.3818112459 0.2276798657 0.3190814069
0.3822842756 0.2287479973 0.3215838865
0.3827115282 0.2297093156 0.3238269627
0.3830930037 0.2305790799 0.3258106355
0.0636148623 0.0828870069 0.0644846265
0.0647135119 0.0823071641 0.0639505608
0.0659189746 0.0815594720 0.0632486458
0.0671549554 0.0806897078 0.0624551766
0.0701304646 0.0810559243 0.0624704356
0.0749523156 0.0831921874 0.0656595712
0.0780651560 0.0824444953 0.0652628367
0.0852826734 0.0837872892 0.0659342336
0.0923628595 0.0861676967 0.0678416114
0.0987716487 0.0885023270 0.0696574350
0.1095445182 0.0933852140 0.0721446555
0.1233844511 0.0987258717 0.0754253452
0.1386587320 0.1028610666 0.0762798505
0.1541771572 0.1067063401 0.0762798505
0.1689326314 0.1094224460 0.0740978103
0.1842374304 0.1116502632 0.0702525368
0.1987029831 0.1150225071 0.0692759594
0.2125886931 0.1180590524 0.0703746090
0.2252231632 0.1213092241 0.0747539483
0.2378881514 0.1264057374 0.0804913405
0.2497138933 0.1300831617 0.0856794079
0.2607919432 0.1327077134 0.0904402228
0.2702067597 0.1414206149 0.0966048676
0.2783550774 0.1480582895 0.1038681621
0.2864118410 0.1531548028 0.1117723354
0.2952925917 0.1576714733 0.1177843900
0.3022659648 0.1603875792 0.1206683452
0.3089494163 0.1630579080 0.1240253300
0.3155718318 0.1656824598 0.1262836652
0.3204699779 0.1670252537 0.1260395209
0.3257038224 0.1670862898 0.1267566949
0.3310902571 0.1649805447 0.1308003357
0.3368886854 0.1617151141 0.1362325475
0.3415732052 0.1563439384 0.1400625620
0.3462424659 0.1508964675 0.1448996719
0.3494163424 0.1530479896 0.1555657282
0.3525444419 0.1559777218 0.1660181582
0.3555504692 0.1595788510 0.1754177157
0.3583733883 0.1629968719 0.1841611353
0.3607537957 0.1690089265 0.1923399710
0.3621728847 0.1743648432 0.2000762951
0.3635309377 0.1795834287 0.2078736553
0.3649652857 0.1850156405 0.2161287861
0.3659571221 0.1864499886 0.2238345922
0.3669184405 0.1876401923 0.2313420310
0.3677882048 0.1883421073 0.2385748074
0.3686579690 0.1890745403 0.2455634394
0.3698329137 0.1924315251 0.2531319142
0.3710688945 0.1964293889 0.2605783169
0.3722896162 0.2005035477 0.2676737621
0.3735255970 0.2046540017 0.2744029908
0.3747005417 0.2085603113 0.2807049668
0.3757228962 0.2115053025 0.2865339132
0.3766994736 0.2142061494 0.2919508659
0.3776150149 0.2167544060 0.2969558251
0.3784695201 0.2191195544 0.3015793088
0.3792782483 0.2213321126 0.3058060578
0.3800259403 0.2233615625 0.3096513313
0.3807125963 0.2252079042 0.3131456474
0.3812924392 0.2265049210 0.3162737469
0.3818112459 0.2276798657 0.3190814069
0.3822842756 0.2287479973 0.3215838865
0.3827115282 0.2297093156 0.3238269627
0.3830930037 0.2305790799 0.3258106355
0.0663614862 0.0913557641 0.0720225834
0.0669718471 0.0906691081 0.0709544518
0.0687876707 0.0900434882 0.0707103075
0.0708628977 0.0892805371 0.0704051270
0.0730296788 0.0888685435 0.0699168383
0.0773479820 0.0904402228 0.0700083925
0.0820477607 0.0907759213 0.0707255665
0.0883802548 0.0920271611 0.0711985962
0.0963759823 0.0947432670 0.0724650950
0.1024185550 0.0964675364 0.0757763027
0.1121538109 0.0997940032 0.0776379034
0.1244983597 0.1045090410 0.0797894255
0.1381857023 0.1082017243 0.0809033341
0.1544518196 0.1124895094 0.0811169604
0.1697566186 0.1158312352 0.0799114977
0.1844968338 0.1175097276 0.0754253452
0.1993591211 0.1201647974 0.0721293965
0.2131532769 0.1223926146 0.0725413901
0.2258487831 0.1250324254 0.0761730373
0.2385595483 0.1297322042 0.0818036164
0.2500495918 0.1350728618 0.0874036774
0.2617380026 0.1401388571 0.0937514305
0.2681773098 0.1410391394 0.0990768292
0.2782024872 0.1479209583 0.1037766079
0.2862745098 0.1533073930 0.1118638895
0.2951857786 0.1577782864 0.1178454261
0.3021133745 0.1604638743 0.1208056764
0.3088273442 0.1631189441 0.1241321431
0.3154345006 0.1657587549 0.1264209964
0.3203784237 0.1670710307 0.1261768521
0.3256122683 0.1672846571 0.1267414359
0.3310139620 0.1651636530 0.1307850767
0.3367971313 0.1619134813 0.1361409934
0.3415121691 0.1565423056 0.1400015259
0.3462119478 0.1509422446 0.1447318227
0.3494010834 0.1530174716 0.1553826200
0.3525291829 0.1559472038 0.1658655680
0.3555352102 0.1595330739 0.1752803845
0.3583581292 0.1629510948 0.1840390631
0.3607385367 0.1689478904 0.1922484169
0.3621576257 0.1743038071 0.2000000000
0.3635156786 0.1795376516 0.2077973602
0.3649500267 0.1849698634 0.2160677501
0.3659571221 0.1864499886 0.2237888151
0.3669031815 0.1876249332 0.2312962539
0.3677882048 0.1883268482 0.2385442893
0.3686579690 0.1890745403 0.2455329213
0.3698329137 0.1924010071 0.2531013962
0.3710536355 0.1964141299 0.2605630579
0.3722896162 0.2004882887 0.2676585031
0.3735103380 0.2046387427 0.2743724727
0.3747005417 0.2085450523 0.2806897078
0.3757228962 0.2114900435 0.2865186542
0.3766994736 0.2141908904 0.2919356069
0.3776150149 0.2167391470 0.2969558251
0.3784695201 0.2191195544 0.3015640497
0.3792782483 0.2213321126 0.3057907988
0.3800259403 0.2233615625 0.3096513313
0.3807125963 0.2252079042 0.3131456474
0.3812924392 0.2265049210 0.3162737469
0.3818112459 0.2276798657 0.3190661479
0.3822842756 0.2287479973 0.3215838865
0.3827115282 0.2297093156 0.3238269627
0.3830930037 0.2305790799 0.3258106355
0.0655832761 0.0997024491 0.0787060349
0.0657663844 0.0990768292 0.0774853132
0.0655527581 0.0981155108 0.0753490501
0.0672617685 0.0973983368 0.0746929122
0.0696421759 0.0966659037 0.0743877317
0.0804913405 0.0984817273 0.0754711223
0.0843823911 0.0996871901 0.0758220798
0.0903486687 0.0995193408 0.0761730373
0.0994430457 0.1029983978 0.0780346380
0.1069047074 0.1052414740 0.0804608225
0.1149462119 0.1079880980 0.0828259709
0.1271076524 0.1116807813 0.0847028305
0.1399404898 0.1153887236 0.0863508049
0.1545281147 0.1191424430 0.0867475395
0.1704585336 0.1223620966 0.0859540703
0.1855649653 0.1247577630 0.0820172427
0.2003662165 0.1258564126 0.0760814832
0.2141603723 0.1285114824 0.0755474174
0.2271152819 0.1307850767 0.0785229267
0.2396276799 0.1345693141 0.0837567712
0.2509651331 0.1392385748 0.0890821698
0.2620431830 0.1439536126 0.0949111162
0.2724650950 0.1484702831 0.1020370794
0.2803997864 0.1527733272 0.1099717708
0.2860914015 0.1534752422 0.1119707027
0.2950484474 0.1579156176 0.1179217212
0.3019302663 0.1605554284 0.1209735256
0.3086747539 0.1631799802 0.1242694743
0.3152513924 0.1658503090 0.1265888457
0.3202716106 0.1671168078 0.1263294423
0.3255054551 0.1675440604 0.1267109178
0.3309224079 0.1653772793 0.1307698177
0.3366903182 0.1621423667 0.1360341802
0.3414206149 0.1567864500 0.1399099718
0.3461356527 0.1511558709 0.1446555276
0.3493705653 0.1529869535 0.1551689937
0.3524986648 0.1559319448 0.1656977188
0.3554894331 0.1594720378 0.1751277943
0.3583276112 0.1629053178 0.1839017319
0.3607232776 0.1688715953 0.1921416037
0.3621423667 0.1742427710 0.1999084459
0.3635004196 0.1794766155 0.2077058061
0.3649347677 0.1849240864 0.2159914549
0.3659418631 0.1864347295 0.2237277790
0.3669031815 0.1876249332 0.2312504768
0.3677882048 0.1883268482 0.2384985122
0.3686579690 0.1890745403 0.2455024033
0.3698176547 0.1923857481 0.2530556191
0.3710536355 0.1963988708 0.2605325399
0.3722896162 0.2004730297 0.2676279850
0.3735103380 0.2046234836 0.2743572137
0.3746852827 0.2085297932 0.2806744488
0.3757228962 0.2114900435 0.2865033951
0.3766842145 0.2141908904 0.2919203479
0.3776150149 0.2167391470 0.2969405661
0.3784695201 0.2191195544 0.3015640497
0.3792782483 0.2213168536 0.3057907988
0.3800259403 0.2233615625 0.3096360723
0.3807125963 0.2252079042 0.3131456474
0.3812771801 0.2264896620 0.3162584878
0.3818112459 0.2276798657 0.3190661479
0.3822842756 0.2287479973 0.3215838865
0.3827115282 0.2297093156 0.3238117037
0.3830930037 0.2305790799 0.3258106355
0.0649423972 0.1067215991 0.0830853742
0.0649881743 0.1063248646 0.0828717479
0.0649576562 0.1057450217 0.0821240558
0.0647135119 0.1047379263 0.0798809796
0.0661936370 0.1039902342 0.0792858778
0.0743266957 0.1049210346 0.0796063172
0.0866559854 0.1070420386 0.0806591897
0.0919661250 0.1086594949 0.0809338521
0.1009689479 0.1107042039 0.0841382467
0.1087052720 0.1128099489 0.0855268177
0.1161364157 0.1149004349 0.0872205692
0.1286793317 0.1194781415 0.0894789044
0.1411306935 0.1218585489 0.0911879149
0.1569542992 0.1262073701 0.0914625772
0.1703364614 0.1294728008 0.0923933776
0.1859464408 0.1318532082 0.0894178683
0.2016479744 0.1336690318 0.0825665675
0.2157167926 0.1356527047 0.0790722515
0.2283207446 0.1374380102 0.0812237736
0.2409857328 0.1411154345 0.0864576181
0.2529030289 0.1451285573 0.0917524987
0.2634470130 0.1493553063 0.0968642710
0.2736095216 0.1529411765 0.1028763256
0.2827191577 0.1566491188 0.1096971084
0.2898908980 0.1603265431 0.1168230716
0.2948653391 0.1580987259 0.1180132753
0.3017013809 0.1606622416 0.1211718929
0.3084916457 0.1632715343 0.1244220645
0.3150530251 0.1659571221 0.1267872129
0.3201342794 0.1671778439 0.1265125505
0.3253833829 0.1678339818 0.1266803998
0.3308155947 0.1656366827 0.1307392996
0.3365682460 0.1624017700 0.1358968490
0.3413290608 0.1570611124 0.1398031586
0.3460593576 0.1514152743 0.1445792325
0.3493553063 0.1529564355 0.1549095903
0.3524834058 0.1559014267 0.1654993515
0.3554589151 0.1594262608 0.1749446860
0.3582818341 0.1628442817 0.1837338827
0.3607080186 0.1687800412 0.1920195315
0.3621271077 0.1741664759 0.1998016327
0.3634851606 0.1794155795 0.2075989929
0.3649195087 0.1848630503 0.2158999008
0.3659418631 0.1864194705 0.2236514839
0.3668879225 0.1876096742 0.2311894408
0.3677729458 0.1883268482 0.2384527352
0.3686427100 0.1890592813 0.2454566262
0.3698176547 0.1923704891 0.2530098421
0.3710536355 0.1963836118 0.2604867628
0.3722743572 0.2004577707 0.2675974670
0.3735103380 0.2046082246 0.2743266957
0.3746852827 0.2085145342 0.2806591897
0.3757228962 0.2114747845 0.2864881361
0.3766842145 0.2141756313 0.2919050889
0.3775997559 0.2167238880 0.2969253071
0.3784695201 0.2191042954 0.3015487907
0.3792782483 0.2213168536 0.3057755398
0.3800259403 0.2233463035 0.3096360723
0.3807125963 0.2252079042 0.3131303883
0.3812771801 0.2264896620 0.3162584878
0.3818112459 0.2276646067 0.3190661479
0.3822842756 0.2287479973 0.3215686275
0.3827115282 0.2297093156 0.3238117037
0.3830930037 0.2305790799 0.3258106355
0.0670634012 0.1146410315 0.0890058747
0.0653391318 0.1139085985 0.0874341955
0.0649118791 0.1133745327 0.0869459068
0.0643472953 0.1127031357 0.0864118410
0.0643625544 0.1118181125 0.0856794079
0.0682841230 0.1117570764 0.0854200046
0.0794232090 0.1136186770 0.0862134737
0.0952468147 0.1163347829 0.0876325628
0.1023422599 0.1179674983 0.0880903334
0.1111314565 0.1200274662 0.0905928130
0.1172961013 0.1214618143 0.0912947280
0.1301289387 0.1261921111 0.0937056535
0.1425040055 0.1291981384 0.0955672541
0.1568474861 0.1328145266 0.0950789654
0.1728084230 0.1366598001 0.0953841459
0.1864957656 0.1397878996 0.0959334707
0.2020447089 0.1424124514 0.0904402228
0.2175783932 0.1441214618 0.0848249027
0.2305485618 0.1469901579 0.0854047456
0.2429846647 0.1494163424 0.0900740063
0.2543068589 0.1519035630 0.0945906767
0.2653543908 0.1553978790 0.0995345998
0.2754100862 0.1589379721 0.1046921492
0.2846265354 0.1619897765 0.1107804990
0.2926985580 0.1649805447 0.1177691310
0.2988326848 0.1670252537 0.1228351263
0.3033798734 0.1670557717 0.1244983597
0.3082627604 0.1633783474 0.1246356909
0.3148088808 0.1660944533 0.1270466163
0.3199664302 0.1672541390 0.1267414359
0.3252155337 0.1681849393 0.1266498817
0.3306782635 0.1659418631 0.1307087816
0.3364309148 0.1627222095 0.1357289998
0.3412069886 0.1573968109 0.1396810864
